;FLAVOR:Marlin
;TIME:610
;Filament used: 1.05622m
;Layer height: 0.3
;MINX:91.8
;MINY:91.8
;MINZ:0.2
;MAXX:118.2
;MAXY:118.2
;MAXZ:9.8
;Generated with Cura_SteamEngine 4.5.0
M140 S60
M105
M190 S60
M104 S210
M105
M109 S210
M82 ;absolute extrusion mode
G21 ;metric values
G90 ;absolute positioning
M82 ;set extruder to absolute mode
M107 ;start with the fan off
G28 X0 Y0 ;move X/Y to min endstops
G28 Z0 ;move Z to min endstops
G1 Z15.0 F120 ;move the platform down 15mm
G92 E0 ;zero the extruded length
G1 F200 E3.00000;extrude 3mm of feed stock
G92 E0 ;zero the extruded length again
G1 F120
G0 Y20 F120
M117 Printing...
G5
G92 E0
G92 E0
G1 F3000 E-6
;LAYER_COUNT:33
;LAYER:0
M107
M204 S3000
M205 X10 Y10
G1 F1800 Z0.275
G0 F3600 X92.789 Y92.704 Z0.275
M204 S1800
M205 X8 Y8
;TYPE:SKIRT
G1 F1800 Z0.2
G1 F3000 E3.00000
G1 F1800 X93.18 Y92.383 E3.01683
G1 X93.617 Y92.128 E3.03365
G1 X94.088 Y91.944 E3.05047
G1 X94.582 Y91.838 E3.06728
G1 X95.24 Y91.801 E3.08920
G1 X114.339 Y91.8 E3.72443
G1 X115.037 Y91.81 E3.74765
G1 X115.54 Y91.857 E3.76445
G1 X116.03 Y91.983 E3.78128
G1 X116.494 Y92.185 E3.79811
G1 X116.92 Y92.457 E3.81492
G1 X117.298 Y92.792 E3.83172
G1 X117.618 Y93.183 E3.84853
G1 X117.873 Y93.62 E3.86536
G1 X118.056 Y94.091 E3.88216
G1 X118.163 Y94.585 E3.89897
G1 X118.199 Y95.24 E3.92079
G1 X118.2 Y114.304 E4.55486
G1 X118.191 Y115.031 E4.57904
G1 X118.145 Y115.534 E4.59584
G1 X118.02 Y116.024 E4.61266
G1 X117.819 Y116.488 E4.62948
G1 X117.548 Y116.915 E4.64630
G1 X117.213 Y117.294 E4.66313
G1 X116.823 Y117.615 E4.67993
G1 X116.387 Y117.871 E4.69674
G1 X115.916 Y118.054 E4.71355
G1 X115.422 Y118.162 E4.73037
G1 X114.76 Y118.199 E4.75242
G1 X95.666 Y118.2 E5.38749
G1 X94.968 Y118.191 E5.41071
G1 X94.464 Y118.144 E5.42754
G1 X93.974 Y118.019 E5.44436
G1 X93.51 Y117.818 E5.46118
G1 X93.084 Y117.547 E5.47797
G1 X92.705 Y117.212 E5.49480
G1 X92.384 Y116.821 E5.51162
G1 X92.129 Y116.385 E5.52842
G1 X91.945 Y115.914 E5.54524
G1 X91.838 Y115.42 E5.56205
G1 X91.801 Y114.744 E5.58457
G1 X91.8 Y95.631 E6.22027
G1 X91.809 Y94.966 E6.24239
G1 X91.856 Y94.462 E6.25923
G1 X91.982 Y93.973 E6.27602
G1 X92.183 Y93.509 E6.29284
G1 X92.454 Y93.082 E6.30966
G1 X92.657 Y92.853 E6.31984
G0 F1620 X92.789 Y92.704
M204 S3000
M205 X10 Y10
G0 F3600 X93.18 Y92.889
M204 S1800
M205 X8 Y8
G1 F1800 X93.563 Y92.611 E6.33558
G1 X93.987 Y92.402 E6.35130
G1 X94.44 Y92.267 E6.36703
G1 X95.252 Y92.201 E6.39412
G1 X114.333 Y92.2 E7.02876
G1 X115.502 Y92.257 E7.06769
G1 X115.958 Y92.382 E7.08341
G1 X116.386 Y92.582 E7.09913
G1 X116.775 Y92.852 E7.11487
G1 X117.112 Y93.183 E7.13059
G1 X117.39 Y93.566 E7.14633
G1 X117.599 Y93.99 E7.16205
G1 X117.733 Y94.443 E7.17776
G1 X117.799 Y95.251 E7.20472
G1 X117.8 Y114.299 E7.83826
G1 X117.791 Y115.026 E7.86245
G1 X117.745 Y115.496 E7.87815
G1 X117.621 Y115.953 E7.89390
G1 X117.421 Y116.381 E7.90961
G1 X117.153 Y116.771 E7.92535
G1 X116.823 Y117.109 E7.94107
G1 X116.44 Y117.387 E7.95681
G1 X116.016 Y117.597 E7.97254
G1 X115.563 Y117.732 E7.98826
G1 X114.748 Y117.799 E8.01546
G1 X95.671 Y117.8 E8.64997
G1 X94.973 Y117.791 E8.67318
G1 X94.502 Y117.745 E8.68892
G1 X94.046 Y117.62 E8.70465
G1 X93.617 Y117.421 E8.72038
G1 X93.228 Y117.152 E8.73611
G1 X92.89 Y116.821 E8.75184
G1 X92.612 Y116.439 E8.76756
G1 X92.403 Y116.015 E8.78328
G1 X92.268 Y115.562 E8.79900
G1 X92.201 Y114.734 E8.82663
G1 X92.2 Y95.636 E9.46183
G1 X92.209 Y94.971 E9.48395
G1 X92.256 Y94.501 E9.49966
G1 X92.38 Y94.044 E9.51541
G1 X92.58 Y93.616 E9.53113
G1 X92.849 Y93.227 E9.54686
G1 X93.041 Y93.031 E9.55598
G0 F1620 X93.18 Y92.889
M204 S3000
M205 X10 Y10
G0 F3600 X93.243 Y93.383
M204 S1800
M205 X8 Y8
G1 F1800 X93.568 Y93.09 E9.57054
G1 X93.94 Y92.86 E9.58508
G1 X94.349 Y92.702 E9.59967
G1 X94.942 Y92.61 E9.61963
G1 X114.327 Y92.6 E10.26437
G1 X115.461 Y92.656 E10.30214
G1 X115.88 Y92.781 E10.31668
G1 X116.27 Y92.979 E10.33123
G1 X116.618 Y93.246 E10.34582
G1 X116.911 Y93.57 E10.36034
G1 X117.141 Y93.943 E10.37492
G1 X117.299 Y94.351 E10.38947
G1 X117.39 Y94.943 E10.40939
G1 X117.4 Y114.294 E11.05301
G1 X117.391 Y115.021 E11.07719
G1 X117.346 Y115.456 E11.09174
G1 X117.222 Y115.876 E11.10630
G1 X117.024 Y116.266 E11.12085
G1 X116.759 Y116.614 E11.13540
G1 X116.434 Y116.909 E11.15000
G1 X116.062 Y117.139 E11.16454
G1 X115.654 Y117.298 E11.17911
G1 X115.058 Y117.39 E11.19917
G1 X95.676 Y117.4 E11.84381
G1 X94.978 Y117.391 E11.86703
G1 X94.543 Y117.345 E11.88158
G1 X94.123 Y117.221 E11.89615
G1 X93.733 Y117.023 E11.91069
G1 X93.385 Y116.758 E11.92524
G1 X93.091 Y116.433 E11.93982
G1 X92.861 Y116.061 E11.95436
G1 X92.702 Y115.653 E11.96893
G1 X92.61 Y115.056 E11.98902
G1 X92.6 Y95.642 E12.63473
G1 X92.609 Y94.977 E12.65685
G1 X92.655 Y94.541 E12.67143
G1 X92.779 Y94.121 E12.68600
G1 X92.977 Y93.731 E12.70055
G1 X93.122 Y93.541 E12.70850
G0 F1620 X93.243 Y93.383
M204 S3000
M205 X10 Y10
G0 F3600 X93.636 Y93.555
M204 S1800
M205 X8 Y8
G1 F1800 X93.952 Y93.311 E12.72177
G1 X94.311 Y93.135 E12.73507
G1 X94.697 Y93.033 E12.74835
G1 X95.274 Y93.001 E12.76757
G1 X114.322 Y93 E13.40111
G1 X115.417 Y93.056 E13.43758
G1 X115.796 Y93.179 E13.45083
G1 X116.144 Y93.376 E13.46413
G1 X116.446 Y93.638 E13.47743
G1 X116.69 Y93.954 E13.49071
G1 X116.866 Y94.313 E13.50401
G1 X116.967 Y94.699 E13.51728
G1 X116.999 Y95.274 E13.53643
G1 X117 Y114.289 E14.16887
G1 X116.991 Y115.016 E14.19305
G1 X116.946 Y115.413 E14.20634
G1 X116.823 Y115.793 E14.21963
G1 X116.627 Y116.141 E14.23291
G1 X116.366 Y116.443 E14.24619
G1 X116.05 Y116.688 E14.25949
G1 X115.692 Y116.864 E14.27275
G1 X115.305 Y116.966 E14.28607
G1 X114.726 Y116.999 E14.30535
G1 X95.681 Y117 E14.93879
G1 X94.983 Y116.991 E14.96201
G1 X94.586 Y116.946 E14.97530
G1 X94.206 Y116.823 E14.98858
G1 X93.858 Y116.627 E15.00187
G1 X93.556 Y116.365 E15.01517
G1 X93.312 Y116.049 E15.02845
G1 X93.135 Y115.691 E15.04173
G1 X93.034 Y115.304 E15.05503
G1 X93.001 Y114.712 E15.07475
G1 X93 Y95.647 E15.70886
G1 X93.009 Y94.982 E15.73098
G1 X93.054 Y94.585 E15.74427
G1 X93.178 Y94.205 E15.75756
G1 X93.374 Y93.857 E15.77084
G1 X93.505 Y93.706 E15.77749
G0 F1620 X93.636 Y93.555
M204 S3000
M205 X10 Y10
G0 F3600 X94.025 Y93.747
M204 S1800
M205 X8 Y8
G1 F1800 X94.329 Y93.56 E15.78936
G1 X94.668 Y93.446 E15.80126
G1 X95.285 Y93.401 E15.82184
G1 X114.316 Y93.4 E16.45481
G1 X115.368 Y93.455 E16.48985
G1 X115.704 Y93.578 E16.50175
G1 X116.004 Y93.771 E16.51361
G1 X116.253 Y94.027 E16.52549
G1 X116.44 Y94.332 E16.53739
G1 X116.554 Y94.67 E16.54925
G1 X116.599 Y95.285 E16.56976
G1 X116.6 Y114.284 E17.20167
G1 X116.591 Y115.011 E17.22585
G1 X116.547 Y115.365 E17.23772
G1 X116.425 Y115.701 E17.24961
G1 X116.232 Y116.001 E17.26147
G1 X115.976 Y116.252 E17.27340
G1 X115.672 Y116.439 E17.28527
G1 X115.334 Y116.554 E17.29714
G1 X114.715 Y116.599 E17.31779
G1 X95.686 Y116.6 E17.95069
G1 X94.988 Y116.591 E17.97391
G1 X94.634 Y116.546 E17.98578
G1 X94.298 Y116.424 E17.99767
G1 X93.998 Y116.231 E18.00953
G1 X93.748 Y115.976 E18.02141
G1 X93.561 Y115.671 E18.03331
G1 X93.446 Y115.333 E18.04518
G1 X93.401 Y114.701 E18.06626
G1 X93.4 Y95.652 E18.69983
G1 X93.409 Y94.987 E18.72195
G1 X93.454 Y94.633 E18.73382
G1 X93.576 Y94.297 E18.74571
G1 X93.77 Y93.997 E18.75759
G1 X93.883 Y93.887 E18.76284
G0 F1620 X94.025 Y93.747
M204 S3000
M205 X10 Y10
G0 F3600 X94.163 Y94.158
M204 S1800
M205 X8 Y8
G1 F1800 X94.409 Y93.97 E18.77313
G1 X94.694 Y93.851 E18.78341
G1 X95.296 Y93.8 E18.80350
G1 X114.31 Y93.8 E19.43591
G1 X115.314 Y93.854 E19.46935
G1 X115.599 Y93.975 E19.47965
G1 X115.843 Y94.165 E19.48993
G1 X116.031 Y94.411 E19.50023
G1 X116.149 Y94.696 E19.51049
G1 X116.2 Y95.296 E19.53052
G1 X116.2 Y114.279 E20.16190
G1 X116.191 Y115.006 E20.18608
G1 X116.147 Y115.312 E20.19636
G1 X116.027 Y115.597 E20.20665
G1 X115.838 Y115.841 E20.21691
G1 X115.592 Y116.029 E20.22721
G1 X115.307 Y116.149 E20.23749
G1 X114.704 Y116.2 E20.25762
G1 X95.692 Y116.2 E20.88996
G1 X94.994 Y116.191 E20.91318
G1 X94.687 Y116.147 E20.92350
G1 X94.403 Y116.027 E20.93375
G1 X94.158 Y115.837 E20.94406
G1 X93.97 Y115.592 E20.95433
G1 X93.851 Y115.306 E20.96464
G1 X93.8 Y114.69 E20.98519
G1 X93.8 Y95.658 E21.61820
G1 X93.809 Y94.993 E21.64032
G1 X93.853 Y94.687 E21.65060
G1 X93.974 Y94.402 E21.66090
G1 X94.041 Y94.316 E21.66453
G0 F1620 X94.163 Y94.158
M204 S3000
M205 X10 Y10
G1 F3000 E15.66453
;MESH:cube_test.stl
G0 F3600 X95.414 Y95.414
G0 X95.5 Y114.53
G0 X95.2 Y114.8
M204 S1800
M205 X8 Y8
;TYPE:WALL-OUTER
G1 F3000 E21.66453
G1 F1800 X95.2 Y95.2 E22.31643
G1 X114.8 Y95.2 E22.96832
G1 X114.8 Y114.8 E23.62022
G1 X95.4 Y114.8 E24.26547
G0 F1620 X95.2 Y114.8
M204 S3000
M205 X10 Y10
G0 F3600 X95.2 Y114.6
G0 X95.64 Y114.36
G0 X95.6 Y114.4
M204 S1800
M205 X8 Y8
;TYPE:WALL-INNER
G1 F1800 X95.6 Y95.6 E24.89076
G1 X114.4 Y95.6 E25.51605
G1 X114.4 Y114.4 E26.14134
G1 X95.8 Y114.4 E26.75998
G0 F1620 X95.6 Y114.4
M204 S3000
M205 X10 Y10
G0 F3600 X96 Y114
M204 S1800
M205 X8 Y8
G1 F1800 X96 Y96 E27.35866
G1 X114 Y96 E27.95735
G1 X114 Y114 E28.55603
G1 X96.2 Y114 E29.14806
G0 F1620 X96 Y114
M204 S3000
M205 X10 Y10
G0 F3600 X96.4 Y113.6
M204 S1800
M205 X8 Y8
G1 F1800 X96.4 Y96.4 E29.72013
G1 X113.6 Y96.4 E30.29221
G1 X113.6 Y113.6 E30.86428
G1 X96.6 Y113.6 E31.42970
G0 F1620 X96.4 Y113.6
M204 S3000
M205 X10 Y10
G0 F3600 X96.79 Y113.21
M204 S1800
M205 X8 Y8
;TYPE:SKIN
G1 F1800 X96.79 Y96.79 E31.97583
G1 X113.21 Y96.79 E32.52197
G1 X113.21 Y113.21 E33.06810
G1 X96.99 Y113.21 E33.60758
G0 F1620 X96.79 Y113.21
M204 S3000
M205 X10 Y10
G0 F3600 X97.19 Y113.029
M204 S1800
M205 X8 Y8
G1 F1800 X96.969 Y112.808 E33.61797
M204 S3000
M205 X10 Y10
G0 F3600 X96.969 Y112.243
M204 S1800
M205 X8 Y8
G1 F1800 X97.756 Y113.029 E33.65497
M204 S3000
M205 X10 Y10
G0 F3600 X98.321 Y113.029
M204 S1800
M205 X8 Y8
G1 F1800 X96.969 Y111.677 E33.71856
M204 S3000
M205 X10 Y10
G0 F3600 X96.969 Y111.111
M204 S1800
M205 X8 Y8
G1 F1800 X98.887 Y113.029 E33.80878
M204 S3000
M205 X10 Y10
G0 F3600 X99.453 Y113.029
M204 S1800
M205 X8 Y8
G1 F1800 X96.969 Y110.546 E33.92559
M204 S3000
M205 X10 Y10
G0 F3600 X96.969 Y109.98
M204 S1800
M205 X8 Y8
G1 F1800 X100.018 Y113.029 E34.06901
M204 S3000
M205 X10 Y10
G0 F3600 X100.584 Y113.029
M204 S1800
M205 X8 Y8
G1 F1800 X96.969 Y109.414 E34.23905
M204 S3000
M205 X10 Y10
G0 F3600 X96.969 Y108.849
M204 S1800
M205 X8 Y8
G1 F1800 X101.15 Y113.029 E34.43569
M204 S3000
M205 X10 Y10
G0 F3600 X101.715 Y113.029
M204 S1800
M205 X8 Y8
G1 F1800 X96.969 Y108.283 E34.65892
M204 S3000
M205 X10 Y10
G0 F3600 X96.969 Y107.717
M204 S1800
M205 X8 Y8
G1 F1800 X102.281 Y113.029 E34.90878
M204 S3000
M205 X10 Y10
G0 F3600 X102.847 Y113.029
M204 S1800
M205 X8 Y8
G1 F1800 X96.969 Y107.152 E35.18524
M204 S3000
M205 X10 Y10
G0 F3600 X96.969 Y106.586
M204 S1800
M205 X8 Y8
G1 F1800 X103.412 Y113.029 E35.48830
M204 S3000
M205 X10 Y10
G0 F3600 X103.978 Y113.029
M204 S1800
M205 X8 Y8
G1 F1800 X96.969 Y106.02 E35.81798
M204 S3000
M205 X10 Y10
G0 F3600 X96.969 Y105.455
M204 S1800
M205 X8 Y8
G1 F1800 X104.544 Y113.029 E36.17426
M204 S3000
M205 X10 Y10
G0 F3600 X105.11 Y113.029
M204 S1800
M205 X8 Y8
G1 F1800 X96.969 Y104.889 E36.55717
M204 S3000
M205 X10 Y10
G0 F3600 X96.969 Y104.323
M204 S1800
M205 X8 Y8
G1 F1800 X105.675 Y113.029 E36.96667
M204 S3000
M205 X10 Y10
G0 F3600 X106.241 Y113.029
M204 S1800
M205 X8 Y8
G1 F1800 X96.969 Y103.758 E37.40278
M204 S3000
M205 X10 Y10
G0 F3600 X96.969 Y103.192
M204 S1800
M205 X8 Y8
G1 F1800 X106.807 Y113.029 E37.86550
M204 S3000
M205 X10 Y10
G0 F3600 X107.372 Y113.029
M204 S1800
M205 X8 Y8
G1 F1800 X96.969 Y102.626 E38.35483
M204 S3000
M205 X10 Y10
G0 F3600 X96.969 Y102.06
M204 S1800
M205 X8 Y8
G1 F1800 X107.938 Y113.029 E38.87077
M204 S3000
M205 X10 Y10
G0 F3600 X108.504 Y113.029
M204 S1800
M205 X8 Y8
G1 F1800 X96.969 Y101.495 E39.41332
M204 S3000
M205 X10 Y10
G0 F3600 X96.969 Y100.929
M204 S1800
M205 X8 Y8
G1 F1800 X109.069 Y113.029 E39.98247
M204 S3000
M205 X10 Y10
G0 F3600 X109.635 Y113.029
M204 S1800
M205 X8 Y8
G1 F1800 X96.969 Y100.363 E40.57824
M204 S3000
M205 X10 Y10
G0 F3600 X96.969 Y99.798
M204 S1800
M205 X8 Y8
G1 F1800 X110.201 Y113.029 E41.20061
M204 S3000
M205 X10 Y10
G0 F3600 X110.766 Y113.029
M204 S1800
M205 X8 Y8
G1 F1800 X96.969 Y99.232 E41.84958
M204 S3000
M205 X10 Y10
G0 F3600 X96.969 Y98.666
M204 S1800
M205 X8 Y8
G1 F1800 X111.332 Y113.029 E42.52517
M204 S3000
M205 X10 Y10
G0 F3600 X111.898 Y113.029
M204 S1800
M205 X8 Y8
G1 F1800 X96.969 Y98.101 E43.22736
M204 S3000
M205 X10 Y10
G0 F3600 X96.969 Y97.535
M204 S1800
M205 X8 Y8
G1 F1800 X112.463 Y113.029 E43.95615
M204 S3000
M205 X10 Y10
G0 F3600 X113.029 Y113.029
M204 S1800
M205 X8 Y8
G1 F1800 X96.969 Y96.969 E44.71156
M204 S3000
M205 X10 Y10
G0 F3600 X97.535 Y96.969
M204 S1800
M205 X8 Y8
G1 F1800 X113.029 Y112.463 E45.44035
M204 S3000
M205 X10 Y10
G0 F3600 X113.029 Y111.898
M204 S1800
M205 X8 Y8
G1 F1800 X98.101 Y96.969 E46.14254
M204 S3000
M205 X10 Y10
G0 F3600 X98.666 Y96.969
M204 S1800
M205 X8 Y8
G1 F1800 X113.029 Y111.332 E46.81813
M204 S3000
M205 X10 Y10
G0 F3600 X113.029 Y110.766
M204 S1800
M205 X8 Y8
G1 F1800 X99.232 Y96.969 E47.46710
M204 S3000
M205 X10 Y10
G0 F3600 X99.798 Y96.969
M204 S1800
M205 X8 Y8
G1 F1800 X113.029 Y110.201 E48.08947
M204 S3000
M205 X10 Y10
G0 F3600 X113.029 Y109.635
M204 S1800
M205 X8 Y8
G1 F1800 X100.363 Y96.969 E48.68524
M204 S3000
M205 X10 Y10
G0 F3600 X100.929 Y96.969
M204 S1800
M205 X8 Y8
G1 F1800 X113.029 Y109.069 E49.25439
M204 S3000
M205 X10 Y10
G0 F3600 X113.029 Y108.504
M204 S1800
M205 X8 Y8
G1 F1800 X101.495 Y96.969 E49.79694
M204 S3000
M205 X10 Y10
G0 F3600 X102.06 Y96.969
M204 S1800
M205 X8 Y8
G1 F1800 X113.029 Y107.938 E50.31289
M204 S3000
M205 X10 Y10
G0 F3600 X113.029 Y107.372
M204 S1800
M205 X8 Y8
G1 F1800 X102.626 Y96.969 E50.80221
M204 S3000
M205 X10 Y10
G0 F3600 X103.192 Y96.969
M204 S1800
M205 X8 Y8
G1 F1800 X113.029 Y106.807 E51.26494
M204 S3000
M205 X10 Y10
G0 F3600 X113.029 Y106.241
M204 S1800
M205 X8 Y8
G1 F1800 X103.758 Y96.969 E51.70104
M204 S3000
M205 X10 Y10
G0 F3600 X104.323 Y96.969
M204 S1800
M205 X8 Y8
G1 F1800 X113.029 Y105.675 E52.11054
M204 S3000
M205 X10 Y10
G0 F3600 X113.029 Y105.11
M204 S1800
M205 X8 Y8
G1 F1800 X104.889 Y96.969 E52.49345
M204 S3000
M205 X10 Y10
G0 F3600 X105.455 Y96.969
M204 S1800
M205 X8 Y8
G1 F1800 X113.029 Y104.544 E52.84973
M204 S3000
M205 X10 Y10
G0 F3600 X113.029 Y103.978
M204 S1800
M205 X8 Y8
G1 F1800 X106.02 Y96.969 E53.17941
M204 S3000
M205 X10 Y10
G0 F3600 X106.586 Y96.969
M204 S1800
M205 X8 Y8
G1 F1800 X113.029 Y103.412 E53.48247
M204 S3000
M205 X10 Y10
G0 F3600 X113.029 Y102.847
M204 S1800
M205 X8 Y8
G1 F1800 X107.152 Y96.969 E53.75893
M204 S3000
M205 X10 Y10
G0 F3600 X107.717 Y96.969
M204 S1800
M205 X8 Y8
G1 F1800 X113.029 Y102.281 E54.00879
M204 S3000
M205 X10 Y10
G0 F3600 X113.029 Y101.715
M204 S1800
M205 X8 Y8
G1 F1800 X108.283 Y96.969 E54.23203
M204 S3000
M205 X10 Y10
G0 F3600 X108.849 Y96.969
M204 S1800
M205 X8 Y8
G1 F1800 X113.029 Y101.15 E54.42866
M204 S3000
M205 X10 Y10
G0 F3600 X113.029 Y100.584
M204 S1800
M205 X8 Y8
G1 F1800 X109.414 Y96.969 E54.59870
M204 S3000
M205 X10 Y10
G0 F3600 X109.98 Y96.969
M204 S1800
M205 X8 Y8
G1 F1800 X113.029 Y100.018 E54.74212
M204 S3000
M205 X10 Y10
G0 F3600 X113.029 Y99.453
M204 S1800
M205 X8 Y8
G1 F1800 X110.546 Y96.969 E54.85893
M204 S3000
M205 X10 Y10
G0 F3600 X111.111 Y96.969
M204 S1800
M205 X8 Y8
G1 F1800 X113.029 Y98.887 E54.94915
M204 S3000
M205 X10 Y10
G0 F3600 X113.029 Y98.321
M204 S1800
