;FLAVOR:Marlin
;TIME:610
;Filament used: 1.05622m
;Layer height: 0.3
;MINX:91.8
;MINY:91.8
;MINZ:0.2
;MAXX:118.2
;MAXY:118.2
;MAXZ:9.8
;Generated with Cura_SteamEngine 4.5.0
M140 S60
M105
M190 S60
M104 S210
M105
M109 S210
M82 ;absolute extrusion mode
G21 ;metric values
G90 ;absolute positioning
M82 ;set extruder to absolute mode
M107 ;start with the fan off
G28 X0 Y0 ;move X/Y to min endstops
G28 Z0 ;move Z to min endstops
G1 Z15.0 F120 ;move the platform down 15mm
G92 E0 ;zero the extruded length
G1 F200 E3 ;extrude 3mm of feed stock
G92 E0 ;zero the extruded length again
G1 F120
G0 Y20 F120
M117 Printing...
G5
G92 E0
G92 E0
G1 F3000 E-6
;LAYER_COUNT:33
;LAYER:0
M107
M204 S3000
M205 X10 Y10
G1 F1800 Z0.275
G0 F3600 X92.789 Y92.704 Z0.275
M204 S1800
M205 X8 Y8
;TYPE:SKIRT
G1 F1800 Z0.2
G1 F3000 E0
G1 F1800 X93.18 Y92.383 E0.01683
G1 X93.617 Y92.128 E0.03365
G1 X94.088 Y91.944 E0.05047
G1 X94.582 Y91.838 E0.06728
G1 X95.24 Y91.801 E0.0892
G1 X114.339 Y91.8 E0.72443
G1 X115.037 Y91.81 E0.74765
G1 X115.54 Y91.857 E0.76445
G1 X116.03 Y91.983 E0.78128
G1 X116.494 Y92.185 E0.79811
G1 X116.92 Y92.457 E0.81492
G1 X117.298 Y92.792 E0.83172
G1 X117.618 Y93.183 E0.84853
G1 X117.873 Y93.62 E0.86536
G1 X118.056 Y94.091 E0.88216
G1 X118.163 Y94.585 E0.89897
G1 X118.199 Y95.24 E0.92079
G1 X118.2 Y114.304 E1.55486
G1 X118.191 Y115.031 E1.57904
G1 X118.145 Y115.534 E1.59584
G1 X118.02 Y116.024 E1.61266
G1 X117.819 Y116.488 E1.62948
G1 X117.548 Y116.915 E1.6463
G1 X117.213 Y117.294 E1.66313
G1 X116.823 Y117.615 E1.67993
G1 X116.387 Y117.871 E1.69674
G1 X115.916 Y118.054 E1.71355
G1 X115.422 Y118.162 E1.73037
G1 X114.76 Y118.199 E1.75242
G1 X95.666 Y118.2 E2.38749
G1 X94.968 Y118.191 E2.41071
G1 X94.464 Y118.144 E2.42754
G1 X93.974 Y118.019 E2.44436
G1 X93.51 Y117.818 E2.46118
G1 X93.084 Y117.547 E2.47797
G1 X92.705 Y117.212 E2.4948
G1 X92.384 Y116.821 E2.51162
G1 X92.129 Y116.385 E2.52842
G1 X91.945 Y115.914 E2.54524
G1 X91.838 Y115.42 E2.56205
G1 X91.801 Y114.744 E2.58457
G1 X91.8 Y95.631 E3.22027
G1 X91.809 Y94.966 E3.24239
G1 X91.856 Y94.462 E3.25923
G1 X91.982 Y93.973 E3.27602
G1 X92.183 Y93.509 E3.29284
G1 X92.454 Y93.082 E3.30966
G1 X92.657 Y92.853 E3.31984
G0 F1620 X92.789 Y92.704
M204 S3000
M205 X10 Y10
G0 F3600 X93.18 Y92.889
M204 S1800
M205 X8 Y8
G1 F1800 X93.563 Y92.611 E3.33558
G1 X93.987 Y92.402 E3.3513
G1 X94.44 Y92.267 E3.36703
G1 X95.252 Y92.201 E3.39412
G1 X114.333 Y92.2 E4.02876
G1 X115.502 Y92.257 E4.06769
G1 X115.958 Y92.382 E4.08341
G1 X116.386 Y92.582 E4.09913
G1 X116.775 Y92.852 E4.11487
G1 X117.112 Y93.183 E4.13059
G1 X117.39 Y93.566 E4.14633
G1 X117.599 Y93.99 E4.16205
G1 X117.733 Y94.443 E4.17776
G1 X117.799 Y95.251 E4.20472
G1 X117.8 Y114.299 E4.83826
G1 X117.791 Y115.026 E4.86245
G1 X117.745 Y115.496 E4.87815
G1 X117.621 Y115.953 E4.8939
G1 X117.421 Y116.381 E4.90961
G1 X117.153 Y116.771 E4.92535
G1 X116.823 Y117.109 E4.94107
G1 X116.44 Y117.387 E4.95681
G1 X116.016 Y117.597 E4.97254
G1 X115.563 Y117.732 E4.98826
G1 X114.748 Y117.799 E5.01546
G1 X95.671 Y117.8 E5.64997
G1 X94.973 Y117.791 E5.67318
G1 X94.502 Y117.745 E5.68892
G1 X94.046 Y117.62 E5.70465
G1 X93.617 Y117.421 E5.72038
G1 X93.228 Y117.152 E5.73611
G1 X92.89 Y116.821 E5.75184
G1 X92.612 Y116.439 E5.76756
G1 X92.403 Y116.015 E5.78328
G1 X92.268 Y115.562 E5.799
G1 X92.201 Y114.734 E5.82663
G1 X92.2 Y95.636 E6.46183
G1 X92.209 Y94.971 E6.48395
G1 X92.256 Y94.501 E6.49966
G1 X92.38 Y94.044 E6.51541
G1 X92.58 Y93.616 E6.53113
G1 X92.849 Y93.227 E6.54686
G1 X93.041 Y93.031 E6.55598
G0 F1620 X93.18 Y92.889
M204 S3000
M205 X10 Y10
G0 F3600 X93.243 Y93.383
M204 S1800
M205 X8 Y8
G1 F1800 X93.568 Y93.09 E6.57054
G1 X93.94 Y92.86 E6.58508
G1 X94.349 Y92.702 E6.59967
G1 X94.942 Y92.61 E6.61963
G1 X114.327 Y92.6 E7.26437
G1 X115.461 Y92.656 E7.30214
G1 X115.88 Y92.781 E7.31668
G1 X116.27 Y92.979 E7.33123
G1 X116.618 Y93.246 E7.34582
G1 X116.911 Y93.57 E7.36034
G1 X117.141 Y93.943 E7.37492
G1 X117.299 Y94.351 E7.38947
G1 X117.39 Y94.943 E7.40939
G1 X117.4 Y114.294 E8.05301
G1 X117.391 Y115.021 E8.07719
G1 X117.346 Y115.456 E8.09174
G1 X117.222 Y115.876 E8.1063
G1 X117.024 Y116.266 E8.12085
G1 X116.759 Y116.614 E8.1354
G1 X116.434 Y116.909 E8.15
G1 X116.062 Y117.139 E8.16454
G1 X115.654 Y117.298 E8.17911
G1 X115.058 Y117.39 E8.19917
G1 X95.676 Y117.4 E8.84381
G1 X94.978 Y117.391 E8.86703
G1 X94.543 Y117.345 E8.88158
G1 X94.123 Y117.221 E8.89615
G1 X93.733 Y117.023 E8.91069
G1 X93.385 Y116.758 E8.92524
G1 X93.091 Y116.433 E8.93982
G1 X92.861 Y116.061 E8.95436
G1 X92.702 Y115.653 E8.96893
G1 X92.61 Y115.056 E8.98902
G1 X92.6 Y95.642 E9.63473
G1 X92.609 Y94.977 E9.65685
G1 X92.655 Y94.541 E9.67143
G1 X92.779 Y94.121 E9.686
G1 X92.977 Y93.731 E9.70055
G1 X93.122 Y93.541 E9.7085
G0 F1620 X93.243 Y93.383
M204 S3000
M205 X10 Y10
G0 F3600 X93.636 Y93.555
M204 S1800
M205 X8 Y8
G1 F1800 X93.952 Y93.311 E9.72177
G1 X94.311 Y93.135 E9.73507
G1 X94.697 Y93.033 E9.74835
G1 X95.274 Y93.001 E9.76757
G1 X114.322 Y93 E10.40111
G1 X115.417 Y93.056 E10.43758
G1 X115.796 Y93.179 E10.45083
G1 X116.144 Y93.376 E10.46413
G1 X116.446 Y93.638 E10.47743
G1 X116.69 Y93.954 E10.49071
G1 X116.866 Y94.313 E10.50401
G1 X116.967 Y94.699 E10.51728
G1 X116.999 Y95.274 E10.53643
G1 X117 Y114.289 E11.16887
G1 X116.991 Y115.016 E11.19305
G1 X116.946 Y115.413 E11.20634
G1 X116.823 Y115.793 E11.21963
G1 X116.627 Y116.141 E11.23291
G1 X116.366 Y116.443 E11.24619
G1 X116.05 Y116.688 E11.25949
G1 X115.692 Y116.864 E11.27275
G1 X115.305 Y116.966 E11.28607
G1 X114.726 Y116.999 E11.30535
G1 X95.681 Y117 E11.93879
G1 X94.983 Y116.991 E11.96201
G1 X94.586 Y116.946 E11.9753
G1 X94.206 Y116.823 E11.98858
G1 X93.858 Y116.627 E12.00187
G1 X93.556 Y116.365 E12.01517
G1 X93.312 Y116.049 E12.02845
G1 X93.135 Y115.691 E12.04173
G1 X93.034 Y115.304 E12.05503
G1 X93.001 Y114.712 E12.07475
G1 X93 Y95.647 E12.70886
G1 X93.009 Y94.982 E12.73098
G1 X93.054 Y94.585 E12.74427
G1 X93.178 Y94.205 E12.75756
G1 X93.374 Y93.857 E12.77084
G1 X93.505 Y93.706 E12.77749
G0 F1620 X93.636 Y93.555
M204 S3000
M205 X10 Y10
G0 F3600 X94.025 Y93.747
M204 S1800
M205 X8 Y8
G1 F1800 X94.329 Y93.56 E12.78936
G1 X94.668 Y93.446 E12.80126
G1 X95.285 Y93.401 E12.82184
G1 X114.316 Y93.4 E13.45481
G1 X115.368 Y93.455 E13.48985
G1 X115.704 Y93.578 E13.50175
G1 X116.004 Y93.771 E13.51361
G1 X116.253 Y94.027 E13.52549
G1 X116.44 Y94.332 E13.53739
G1 X116.554 Y94.67 E13.54925
G1 X116.599 Y95.285 E13.56976
G1 X116.6 Y114.284 E14.20167
G1 X116.591 Y115.011 E14.22585
G1 X116.547 Y115.365 E14.23772
G1 X116.425 Y115.701 E14.24961
G1 X116.232 Y116.001 E14.26147
G1 X115.976 Y116.252 E14.2734
G1 X115.672 Y116.439 E14.28527
G1 X115.334 Y116.554 E14.29714
G1 X114.715 Y116.599 E14.31779
G1 X95.686 Y116.6 E14.95069
G1 X94.988 Y116.591 E14.97391
G1 X94.634 Y116.546 E14.98578
G1 X94.298 Y116.424 E14.99767
G1 X93.998 Y116.231 E15.00953
G1 X93.748 Y115.976 E15.02141
G1 X93.561 Y115.671 E15.03331
G1 X93.446 Y115.333 E15.04518
G1 X93.401 Y114.701 E15.06626
G1 X93.4 Y95.652 E15.69983
G1 X93.409 Y94.987 E15.72195
G1 X93.454 Y94.633 E15.73382
G1 X93.576 Y94.297 E15.74571
G1 X93.77 Y93.997 E15.75759
G1 X93.883 Y93.887 E15.76284
G0 F1620 X94.025 Y93.747
M204 S3000
M205 X10 Y10
G0 F3600 X94.163 Y94.158
M204 S1800
M205 X8 Y8
G1 F1800 X94.409 Y93.97 E15.77313
G1 X94.694 Y93.851 E15.78341
G1 X95.296 Y93.8 E15.8035
G1 X114.31 Y93.8 E16.43591
G1 X115.314 Y93.854 E16.46935
G1 X115.599 Y93.975 E16.47965
G1 X115.843 Y94.165 E16.48993
G1 X116.031 Y94.411 E16.50023
G1 X116.149 Y94.696 E16.51049
G1 X116.2 Y95.296 E16.53052
G1 X116.2 Y114.279 E17.1619
G1 X116.191 Y115.006 E17.18608
G1 X116.147 Y115.312 E17.19636
G1 X116.027 Y115.597 E17.20665
G1 X115.838 Y115.841 E17.21691
G1 X115.592 Y116.029 E17.22721
G1 X115.307 Y116.149 E17.23749
G1 X114.704 Y116.2 E17.25762
G1 X95.692 Y116.2 E17.88996
G1 X94.994 Y116.191 E17.91318
G1 X94.687 Y116.147 E17.9235
G1 X94.403 Y116.027 E17.93375
G1 X94.158 Y115.837 E17.94406
G1 X93.97 Y115.592 E17.95433
G1 X93.851 Y115.306 E17.96464
G1 X93.8 Y114.69 E17.98519
G1 X93.8 Y95.658 E18.6182
G1 X93.809 Y94.993 E18.64032
G1 X93.853 Y94.687 E18.6506
G1 X93.974 Y94.402 E18.6609
G1 X94.041 Y94.316 E18.66453
G0 F1620 X94.163 Y94.158
M204 S3000
M205 X10 Y10
G1 F3000 E12.66453
;MESH:cube_test.stl
G0 F3600 X95.414 Y95.414
G0 X95.5 Y114.53
G0 X95.2 Y114.8
M204 S1800
M205 X8 Y8
;TYPE:WALL-OUTER
G1 F3000 E18.66453
G1 F1800 X95.2 Y95.2 E19.31643
G1 X114.8 Y95.2 E19.96832
G1 X114.8 Y114.8 E20.62022
G1 X95.4 Y114.8 E21.26547
G0 F1620 X95.2 Y114.8
M204 S3000
M205 X10 Y10
G0 F3600 X95.2 Y114.6
G0 X95.64 Y114.36
G0 X95.6 Y114.4
M204 S1800
M205 X8 Y8
;TYPE:WALL-INNER
G1 F1800 X95.6 Y95.6 E21.89076
G1 X114.4 Y95.6 E22.51605
G1 X114.4 Y114.4 E23.14134
G1 X95.8 Y114.4 E23.75998
G0 F1620 X95.6 Y114.4
M204 S3000
M205 X10 Y10
G0 F3600 X96 Y114
M204 S1800
M205 X8 Y8
G1 F1800 X96 Y96 E24.35866
G1 X114 Y96 E24.95735
G1 X114 Y114 E25.55603
G1 X96.2 Y114 E26.14806
G0 F1620 X96 Y114
M204 S3000
M205 X10 Y10
G0 F3600 X96.4 Y113.6
M204 S1800
M205 X8 Y8
G1 F1800 X96.4 Y96.4 E26.72013
G1 X113.6 Y96.4 E27.29221
G1 X113.6 Y113.6 E27.86428
G1 X96.6 Y113.6 E28.4297
G0 F1620 X96.4 Y113.6
M204 S3000
M205 X10 Y10
G0 F3600 X96.79 Y113.21
M204 S1800
M205 X8 Y8
;TYPE:SKIN
G1 F1800 X96.79 Y96.79 E28.97583
G1 X113.21 Y96.79 E29.52197
G1 X113.21 Y113.21 E30.0681
G1 X96.99 Y113.21 E30.60758
G0 F1620 X96.79 Y113.21
M204 S3000
M205 X10 Y10
G0 F3600 X97.19 Y113.029
M204 S1800
M205 X8 Y8
G1 F1800 X96.969 Y112.808 E30.61797
M204 S3000
M205 X10 Y10
G0 F3600 X96.969 Y112.243
M204 S1800
M205 X8 Y8
G1 F1800 X97.756 Y113.029 E30.65497
M204 S3000
M205 X10 Y10
G0 F3600 X98.321 Y113.029
M204 S1800
M205 X8 Y8
G1 F1800 X96.969 Y111.677 E30.71856
M204 S3000
M205 X10 Y10
G0 F3600 X96.969 Y111.111
M204 S1800
M205 X8 Y8
G1 F1800 X98.887 Y113.029 E30.80878
M204 S3000
M205 X10 Y10
G0 F3600 X99.453 Y113.029
M204 S1800
M205 X8 Y8
G1 F1800 X96.969 Y110.546 E30.92559
M204 S3000
M205 X10 Y10
G0 F3600 X96.969 Y109.98
M204 S1800
M205 X8 Y8
G1 F1800 X100.018 Y113.029 E31.06901
M204 S3000
M205 X10 Y10
G0 F3600 X100.584 Y113.029
M204 S1800
M205 X8 Y8
G1 F1800 X96.969 Y109.414 E31.23905
M204 S3000
M205 X10 Y10
G0 F3600 X96.969 Y108.849
M204 S1800
M205 X8 Y8
G1 F1800 X101.15 Y113.029 E31.43569
M204 S3000
M205 X10 Y10
G0 F3600 X101.715 Y113.029
M204 S1800
M205 X8 Y8
G1 F1800 X96.969 Y108.283 E31.65892
M204 S3000
M205 X10 Y10
G0 F3600 X96.969 Y107.717
M204 S1800
M205 X8 Y8
G1 F1800 X102.281 Y113.029 E31.90878
M204 S3000
M205 X10 Y10
G0 F3600 X102.847 Y113.029
M204 S1800
M205 X8 Y8
G1 F1800 X96.969 Y107.152 E32.18524
M204 S3000
M205 X10 Y10
G0 F3600 X96.969 Y106.586
M204 S1800
M205 X8 Y8
G1 F1800 X103.412 Y113.029 E32.4883
M204 S3000
M205 X10 Y10
G0 F3600 X103.978 Y113.029
M204 S1800
M205 X8 Y8
G1 F1800 X96.969 Y106.02 E32.81798
M204 S3000
M205 X10 Y10
G0 F3600 X96.969 Y105.455
M204 S1800
M205 X8 Y8
G1 F1800 X104.544 Y113.029 E33.17426
M204 S3000
M205 X10 Y10
G0 F3600 X105.11 Y113.029
M204 S1800
M205 X8 Y8
G1 F1800 X96.969 Y104.889 E33.55717
M204 S3000
M205 X10 Y10
G0 F3600 X96.969 Y104.323
M204 S1800
M205 X8 Y8
G1 F1800 X105.675 Y113.029 E33.96667
M204 S3000
M205 X10 Y10
G0 F3600 X106.241 Y113.029
M204 S1800
M205 X8 Y8
G1 F1800 X96.969 Y103.758 E34.40278
M204 S3000
M205 X10 Y10
G0 F3600 X96.969 Y103.192
M204 S1800
M205 X8 Y8
G1 F1800 X106.807 Y113.029 E34.8655
M204 S3000
M205 X10 Y10
G0 F3600 X107.372 Y113.029
M204 S1800
M205 X8 Y8
G1 F1800 X96.969 Y102.626 E35.35483
M204 S3000
M205 X10 Y10
G0 F3600 X96.969 Y102.06
M204 S1800
M205 X8 Y8
G1 F1800 X107.938 Y113.029 E35.87077
M204 S3000
M205 X10 Y10
G0 F3600 X108.504 Y113.029
M204 S1800
M205 X8 Y8
G1 F1800 X96.969 Y101.495 E36.41332
M204 S3000
M205 X10 Y10
G0 F3600 X96.969 Y100.929
M204 S1800
M205 X8 Y8
G1 F1800 X109.069 Y113.029 E36.98247
M204 S3000
M205 X10 Y10
G0 F3600 X109.635 Y113.029
M204 S1800
M205 X8 Y8
G1 F1800 X96.969 Y100.363 E37.57824
M204 S3000
M205 X10 Y10
G0 F3600 X96.969 Y99.798
M204 S1800
M205 X8 Y8
G1 F1800 X110.201 Y113.029 E38.20061
M204 S3000
M205 X10 Y10
G0 F3600 X110.766 Y113.029
M204 S1800
M205 X8 Y8
G1 F1800 X96.969 Y99.232 E38.84958
M204 S3000
M205 X10 Y10
G0 F3600 X96.969 Y98.666
M204 S1800
M205 X8 Y8
G1 F1800 X111.332 Y113.029 E39.52517
M204 S3000
M205 X10 Y10
G0 F3600 X111.898 Y113.029
M204 S1800
M205 X8 Y8
G1 F1800 X96.969 Y98.101 E40.22736
M204 S3000
M205 X10 Y10
G0 F3600 X96.969 Y97.535
M204 S1800
M205 X8 Y8
G1 F1800 X112.463 Y113.029 E40.95615
M204 S3000
M205 X10 Y10
G0 F3600 X113.029 Y113.029
M204 S1800
M205 X8 Y8
G1 F1800 X96.969 Y96.969 E41.71156
M204 S3000
M205 X10 Y10
G0 F3600 X97.535 Y96.969
M204 S1800
M205 X8 Y8
G1 F1800 X113.029 Y112.463 E42.44035
M204 S3000
M205 X10 Y10
G0 F3600 X113.029 Y111.898
M204 S1800
M205 X8 Y8
G1 F1800 X98.101 Y96.969 E43.14254
M204 S3000
M205 X10 Y10
G0 F3600 X98.666 Y96.969
M204 S1800
M205 X8 Y8
G1 F1800 X113.029 Y111.332 E43.81813
M204 S3000
M205 X10 Y10
G0 F3600 X113.029 Y110.766
M204 S1800
M205 X8 Y8
G1 F1800 X99.232 Y96.969 E44.4671
M204 S3000
M205 X10 Y10
G0 F3600 X99.798 Y96.969
M204 S1800
M205 X8 Y8
G1 F1800 X113.029 Y110.201 E45.08947
M204 S3000
M205 X10 Y10
G0 F3600 X113.029 Y109.635
M204 S1800
M205 X8 Y8
G1 F1800 X100.363 Y96.969 E45.68524
M204 S3000
M205 X10 Y10
G0 F3600 X100.929 Y96.969
M204 S1800
M205 X8 Y8
G1 F1800 X113.029 Y109.069 E46.25439
M204 S3000
M205 X10 Y10
G0 F3600 X113.029 Y108.504
M204 S1800
M205 X8 Y8
G1 F1800 X101.495 Y96.969 E46.79694
M204 S3000
M205 X10 Y10
G0 F3600 X102.06 Y96.969
M204 S1800
M205 X8 Y8
G1 F1800 X113.029 Y107.938 E47.31289
M204 S3000
M205 X10 Y10
G0 F3600 X113.029 Y107.372
M204 S1800
M205 X8 Y8
G1 F1800 X102.626 Y96.969 E47.80221
M204 S3000
M205 X10 Y10
G0 F3600 X103.192 Y96.969
M204 S1800
M205 X8 Y8
G1 F1800 X113.029 Y106.807 E48.26494
M204 S3000
M205 X10 Y10
G0 F3600 X113.029 Y106.241
M204 S1800
M205 X8 Y8
G1 F1800 X103.758 Y96.969 E48.70104
M204 S3000
M205 X10 Y10
G0 F3600 X104.323 Y96.969
M204 S1800
M205 X8 Y8
G1 F1800 X113.029 Y105.675 E49.11054
M204 S3000
M205 X10 Y10
G0 F3600 X113.029 Y105.11
M204 S1800
M205 X8 Y8
G1 F1800 X104.889 Y96.969 E49.49345
M204 S3000
M205 X10 Y10
G0 F3600 X105.455 Y96.969
M204 S1800
M205 X8 Y8
G1 F1800 X113.029 Y104.544 E49.84973
M204 S3000
M205 X10 Y10
G0 F3600 X113.029 Y103.978
M204 S1800
M205 X8 Y8
G1 F1800 X106.02 Y96.969 E50.17941
M204 S3000
M205 X10 Y10
G0 F3600 X106.586 Y96.969
M204 S1800
M205 X8 Y8
G1 F1800 X113.029 Y103.412 E50.48247
M204 S3000
M205 X10 Y10
G0 F3600 X113.029 Y102.847
M204 S1800
M205 X8 Y8
G1 F1800 X107.152 Y96.969 E50.75893
M204 S3000
M205 X10 Y10
G0 F3600 X107.717 Y96.969
M204 S1800
M205 X8 Y8
G1 F1800 X113.029 Y102.281 E51.00879
M204 S3000
M205 X10 Y10
G0 F3600 X113.029 Y101.715
M204 S1800
M205 X8 Y8
G1 F1800 X108.283 Y96.969 E51.23203
M204 S3000
M205 X10 Y10
G0 F3600 X108.849 Y96.969
M204 S1800
M205 X8 Y8
G1 F1800 X113.029 Y101.15 E51.42866
M204 S3000
M205 X10 Y10
G0 F3600 X113.029 Y100.584
M204 S1800
M205 X8 Y8
G1 F1800 X109.414 Y96.969 E51.5987
M204 S3000
M205 X10 Y10
G0 F3600 X109.98 Y96.969
M204 S1800
M205 X8 Y8
G1 F1800 X113.029 Y100.018 E51.74212
M204 S3000
M205 X10 Y10
G0 F3600 X113.029 Y99.453
M204 S1800
M205 X8 Y8
G1 F1800 X110.546 Y96.969 E51.85893
M204 S3000
M205 X10 Y10
G0 F3600 X111.111 Y96.969
M204 S1800
M205 X8 Y8
G1 F1800 X113.029 Y98.887 E51.94915
M204 S3000
M205 X10 Y10
G0 F3600 X113.029 Y98.321
M204 S1800
M205 X8 Y8
G1 F1800 X111.677 Y96.969 E52.01274
M204 S3000
M205 X10 Y10
