;FLAVOR:Marlin
;TIME:478
;Filament used: 0.831126m
;Layer height: 0.3
;MINX:91.423
;MINY:91.418
;MINZ:0.2
;MAXX:118.582
;MAXY:118.58
;MAXZ:9.8
;Generated with Cura_SteamEngine 4.5.0
M140 S60
M105
M190 S60
M104 S210
M105
M109 S210
M82 ;absolute extrusion mode
G21 ;metric values
G90 ;absolute positioning
M82 ;set extruder to absolute mode
M107 ;start with the fan off
G28 X0 Y0 ;move X/Y to min endstops
G28 Z0 ;move Z to min endstops
G1 Z15.0 F120 ;move the platform down 15mm
G92 E0 ;zero the extruded length
G1 F200 E3.00000;extrude 3mm of feed stock
G92 E0 ;zero the extruded length again
G1 F120
G0 Y20 F120
M117 Printing...
G5
G92 E0
G92 E0
G1 F3000 E-6
;LAYER_COUNT:33
;LAYER:0
M107
M204 S3000
M205 X10 Y10
G1 F1800 Z0.275
G0 F3600 X95.537 Y95.257 Z0.275
M204 S1800
M205 X8 Y8
;TYPE:SKIRT
G1 F1800 Z0.2
G1 F3000 E3.00000
G1 F1800 X96.235 Y94.623 E3.03136
G1 X96.997 Y94.021 E3.06366
G1 X97.448 Y93.701 E3.08205
G1 X98.523 Y93.061 E3.12367
G1 X99.377 Y92.636 E3.15539
G1 X100.259 Y92.272 E3.18713
G1 X101.102 Y91.989 E3.21670
G1 X102.078 Y91.736 E3.25024
G1 X102.958 Y91.571 E3.28002
G1 X103.885 Y91.463 E3.31106
G1 X104.832 Y91.418 E3.34259
G1 X105.777 Y91.439 E3.37403
G1 X106.688 Y91.522 E3.40446
G1 X107.669 Y91.682 E3.43752
G1 X108.619 Y91.904 E3.46996
G1 X109.138 Y92.055 E3.48794
G1 X110.28 Y92.487 E3.52855
G1 X111.171 Y92.901 E3.56123
G1 X111.987 Y93.353 E3.59225
G1 X112.757 Y93.851 E3.62275
G1 X113.557 Y94.452 E3.65603
G1 X114.194 Y95 E3.68398
G1 X114.911 Y95.712 E3.71759
G1 X115.504 Y96.387 E3.74747
G1 X116.083 Y97.15 E3.77933
G1 X116.611 Y97.955 E3.81135
G1 X117.052 Y98.737 E3.84121
G1 X117.454 Y99.579 E3.87224
G1 X117.806 Y100.473 E3.90420
G1 X118.088 Y101.367 E3.93538
G1 X118.306 Y102.269 E3.96624
G1 X118.463 Y103.201 E3.99768
G1 X118.554 Y104.121 E4.02843
G1 X118.582 Y105.065 E4.05984
G1 X118.544 Y106.026 E4.09183
G1 X118.445 Y106.929 E4.12204
G1 X118.276 Y107.865 E4.15368
G1 X118.049 Y108.771 E4.18474
G1 X117.769 Y109.634 E4.21492
G1 X117.402 Y110.538 E4.24737
G1 X116.992 Y111.38 E4.27852
G1 X116.536 Y112.17 E4.30886
G1 X116.002 Y112.965 E4.34071
G1 X115.407 Y113.728 E4.37289
G1 X114.833 Y114.371 E4.40156
G1 X114.108 Y115.076 E4.43519
G1 X113.431 Y115.65 E4.46471
G1 X112.659 Y116.216 E4.49655
G1 X111.864 Y116.72 E4.52786
G1 X111.037 Y117.167 E4.55913
G1 X110.178 Y117.558 E4.59052
G1 X109.237 Y117.908 E4.62391
G1 X108.724 Y118.07 E4.64180
G1 X108.209 Y118.201 E4.65948
G1 X107.553 Y118.342 E4.68179
G1 X106.547 Y118.494 E4.71563
G1 X105.644 Y118.568 E4.74577
G1 X104.709 Y118.58 E4.77687
G1 X103.741 Y118.524 E4.80912
G1 X102.824 Y118.407 E4.83987
G1 X101.943 Y118.233 E4.86973
G1 X100.997 Y117.979 E4.90231
G1 X100.127 Y117.678 E4.93293
G1 X99.237 Y117.299 E4.96511
G1 X98.411 Y116.878 E4.99594
G1 X97.548 Y116.361 E5.02940
G1 X97.095 Y116.055 E5.04758
G1 X96.683 Y115.743 E5.06477
G1 X96.137 Y115.293 E5.08831
G1 X95.441 Y114.649 E5.11984
G1 X94.783 Y113.949 E5.15180
G1 X94.198 Y113.233 E5.18255
G1 X93.646 Y112.458 E5.21420
G1 X93.173 Y111.682 E5.24442
G1 X92.718 Y110.799 E5.27746
G1 X92.369 Y109.997 E5.30655
G1 X92.048 Y109.09 E5.33855
G1 X91.792 Y108.166 E5.37044
G1 X91.613 Y107.298 E5.39992
G1 X91.48 Y106.297 E5.43351
G1 X91.423 Y105.419 E5.46277
G1 X91.428 Y104.461 E5.49463
G1 X91.495 Y103.55 E5.52502
G1 X91.634 Y102.583 E5.55751
G1 X91.829 Y101.683 E5.58814
G1 X92.093 Y100.771 E5.61972
G1 X92.421 Y99.878 E5.65136
G1 X92.774 Y99.081 E5.68035
G1 X93.242 Y98.201 E5.71350
G1 X93.721 Y97.433 E5.74360
G1 X94.286 Y96.652 E5.77567
G1 X94.866 Y95.956 E5.80580
G1 X95.399 Y95.401 E5.83139
G0 F1620 X95.537 Y95.257
M204 S3000
M205 X10 Y10
G0 F3600 X95.823 Y95.536
M204 S1800
M205 X8 Y8
G1 F1800 X96.501 Y94.922 E5.86182
G1 X97.243 Y94.337 E5.89324
G1 X97.677 Y94.029 E5.91094
G1 X98.724 Y93.407 E5.95145
G1 X99.552 Y92.996 E5.98219
G1 X100.408 Y92.643 E6.01299
G1 X101.225 Y92.369 E6.04165
G1 X102.175 Y92.124 E6.07428
G1 X103.028 Y91.965 E6.10314
G1 X103.928 Y91.861 E6.13327
G1 X104.847 Y91.817 E6.16388
G1 X105.765 Y91.839 E6.19442
G1 X106.648 Y91.92 E6.22391
G1 X107.602 Y92.076 E6.25606
G1 X108.524 Y92.293 E6.28756
G1 X109.023 Y92.438 E6.30485
G1 X110.135 Y92.859 E6.34439
G1 X110.998 Y93.262 E6.37607
G1 X111.791 Y93.701 E6.40622
G1 X112.537 Y94.185 E6.43580
G1 X113.314 Y94.769 E6.46813
G1 X113.93 Y95.3 E6.49518
G1 X114.627 Y95.994 E6.52789
G1 X115.201 Y96.648 E6.55683
G1 X115.763 Y97.389 E6.58776
G1 X116.275 Y98.171 E6.61885
G1 X116.702 Y98.93 E6.64782
G1 X117.091 Y99.748 E6.67794
G1 X117.432 Y100.616 E6.70896
G1 X117.705 Y101.484 E6.73923
G1 X117.916 Y102.36 E6.76920
G1 X118.068 Y103.264 E6.79968
G1 X118.155 Y104.157 E6.82953
G1 X118.182 Y105.074 E6.86004
G1 X118.144 Y106.006 E6.89106
G1 X118.048 Y106.881 E6.92034
G1 X117.883 Y107.79 E6.95107
G1 X117.662 Y108.671 E6.98128
G1 X117.389 Y109.507 E7.01053
G1 X117.033 Y110.384 E7.04201
G1 X116.634 Y111.202 E7.07228
G1 X116.192 Y111.967 E7.10167
G1 X115.672 Y112.739 E7.13262
G1 X115.094 Y113.479 E7.16386
G1 X114.537 Y114.102 E7.19165
G1 X113.832 Y114.787 E7.22434
G1 X113.175 Y115.342 E7.25295
G1 X112.425 Y115.892 E7.28388
G1 X111.653 Y116.38 E7.31426
G1 X110.85 Y116.813 E7.34460
G1 X110.015 Y117.192 E7.37510
G1 X109.101 Y117.532 E7.40754
G1 X108.607 Y117.687 E7.42476
G1 X107.468 Y117.951 E7.46365
G1 X106.491 Y118.098 E7.49651
G1 X105.616 Y118.169 E7.52570
G1 X104.707 Y118.18 E7.55594
G1 X103.769 Y118.125 E7.58719
G1 X102.878 Y118.011 E7.61707
G1 X102.024 Y117.841 E7.64603
G1 X101.104 Y117.593 E7.67772
G1 X100.262 Y117.301 E7.70736
G1 X99.397 Y116.932 E7.73864
G1 X98.596 Y116.523 E7.76855
G1 X97.757 Y116.019 E7.80111
G1 X97.322 Y115.726 E7.81855
G1 X96.392 Y114.984 E7.85812
G1 X95.715 Y114.357 E7.88881
G1 X95.076 Y113.677 E7.91985
G1 X94.509 Y112.983 E7.94966
G1 X93.974 Y112.229 E7.98041
G1 X93.517 Y111.477 E8.00967
G1 X93.075 Y110.619 E8.04177
G1 X92.737 Y109.84 E8.07002
G1 X92.426 Y108.96 E8.10106
G1 X92.178 Y108.063 E8.13201
G1 X92.006 Y107.221 E8.16060
G1 X91.877 Y106.247 E8.19328
G1 X91.823 Y105.398 E8.22157
G1 X91.828 Y104.467 E8.25254
G1 X91.894 Y103.583 E8.28202
G1 X92.03 Y102.644 E8.31358
G1 X92.219 Y101.771 E8.34329
G1 X92.476 Y100.886 E8.37394
G1 X92.795 Y100.019 E8.40466
G1 X93.138 Y99.247 E8.43276
G1 X93.594 Y98.392 E8.46499
G1 X94.058 Y97.648 E8.49415
G1 X94.607 Y96.89 E8.52528
G1 X95.17 Y96.215 E8.55452
G1 X95.685 Y95.68 E8.57922
G0 F1620 X95.823 Y95.536
M204 S3000
M205 X10 Y10
G0 F3600 X96.109 Y95.816
M204 S1800
M205 X8 Y8
G1 F1800 X96.767 Y95.221 E8.60872
G1 X97.488 Y94.653 E8.63925
G1 X97.906 Y94.356 E8.65631
G1 X98.925 Y93.753 E8.69569
G1 X99.726 Y93.356 E8.72542
G1 X100.558 Y93.014 E8.75534
G1 X101.349 Y92.75 E8.78308
G1 X102.272 Y92.512 E8.81478
G1 X103.098 Y92.359 E8.84272
G1 X103.971 Y92.258 E8.87195
G1 X104.863 Y92.217 E8.90165
G1 X105.752 Y92.238 E8.93122
G1 X106.608 Y92.318 E8.95982
G1 X107.534 Y92.47 E8.99103
G1 X108.43 Y92.682 E9.02165
G1 X109.119 Y92.893 E9.04562
G1 X109.991 Y93.232 E9.07674
G1 X110.826 Y93.623 E9.10740
G1 X111.594 Y94.049 E9.13661
G1 X112.316 Y94.519 E9.16527
G1 X113.071 Y95.087 E9.19669
G1 X113.665 Y95.601 E9.22282
G1 X114.343 Y96.275 E9.25462
G1 X114.898 Y96.909 E9.28264
G1 X115.442 Y97.628 E9.31263
G1 X115.939 Y98.388 E9.34283
G1 X116.352 Y99.123 E9.37087
G1 X116.729 Y99.917 E9.40011
G1 X117.059 Y100.759 E9.43019
G1 X117.322 Y101.6 E9.45949
G1 X117.526 Y102.45 E9.48857
G1 X117.673 Y103.327 E9.51814
G1 X117.757 Y104.192 E9.54705
G1 X117.782 Y105.082 E9.57666
G1 X117.745 Y105.987 E9.60679
G1 X117.65 Y106.834 E9.63514
G1 X117.49 Y107.716 E9.66495
G1 X117.275 Y108.57 E9.69424
G1 X117.01 Y109.38 E9.72259
G1 X116.663 Y110.23 E9.75312
G1 X116.276 Y111.023 E9.78247
G1 X115.847 Y111.764 E9.81095
G1 X115.342 Y112.513 E9.84099
G1 X114.781 Y113.23 E9.87127
G1 X114.241 Y113.832 E9.89817
G1 X113.555 Y114.497 E9.92995
G1 X112.92 Y115.034 E9.95761
G1 X112.192 Y115.567 E9.98762
G1 X111.443 Y116.04 E10.01708
G1 X110.663 Y116.46 E10.04655
G1 X109.853 Y116.827 E10.07612
G1 X108.964 Y117.156 E10.10765
G1 X108.345 Y117.345 E10.12918
G1 X107.384 Y117.559 E10.16192
G1 X106.434 Y117.702 E10.19388
G1 X105.587 Y117.77 E10.22214
G1 X104.705 Y117.78 E10.25148
G1 X103.796 Y117.726 E10.28176
G1 X102.932 Y117.614 E10.31074
G1 X102.105 Y117.45 E10.33878
G1 X101.211 Y117.208 E10.36959
G1 X100.396 Y116.925 E10.39828
G1 X99.557 Y116.566 E10.42863
G1 X98.781 Y116.169 E10.45763
G1 X97.965 Y115.678 E10.48930
G1 X97.55 Y115.396 E10.50599
G1 X96.646 Y114.676 E10.54443
G1 X95.989 Y114.066 E10.57425
G1 X95.37 Y113.406 E10.60434
G1 X94.821 Y112.733 E10.63323
G1 X94.303 Y112 E10.66308
G1 X93.86 Y111.272 E10.69142
G1 X93.432 Y110.439 E10.72257
G1 X93.105 Y109.684 E10.74994
G1 X92.804 Y108.83 E10.78006
G1 X92.564 Y107.959 E10.81011
G1 X92.399 Y107.145 E10.83773
G1 X92.274 Y106.198 E10.86950
G1 X92.222 Y105.376 E10.89689
G1 X92.228 Y104.473 E10.92693
G1 X92.293 Y103.616 E10.95551
G1 X92.425 Y102.704 E10.98616
G1 X92.609 Y101.859 E11.01493
G1 X92.86 Y101 E11.04469
G1 X93.169 Y100.16 E11.07446
G1 X93.502 Y99.413 E11.10166
G1 X93.945 Y98.583 E11.13296
G1 X94.396 Y97.862 E11.16124
G1 X94.929 Y97.127 E11.19144
G1 X95.475 Y96.474 E11.21975
G1 X95.971 Y95.96 E11.24351
G0 F1620 X96.109 Y95.816
M204 S3000
M205 X10 Y10
G0 F3600 X96.395 Y96.095
M204 S1800
M205 X8 Y8
G1 F1800 X97.033 Y95.52 E11.27207
G1 X97.733 Y94.969 E11.30170
G1 X98.305 Y94.576 E11.32479
G1 X99.126 Y94.099 E11.35637
G1 X99.9 Y93.716 E11.38509
G1 X100.708 Y93.384 E11.41414
G1 X101.472 Y93.13 E11.44092
G1 X102.369 Y92.9 E11.47172
G1 X103.168 Y92.753 E11.49874
G1 X104.014 Y92.656 E11.52706
G1 X104.878 Y92.617 E11.55583
G1 X105.739 Y92.638 E11.58448
G1 X106.567 Y92.716 E11.61214
G1 X107.467 Y92.865 E11.64248
G1 X108.335 Y93.07 E11.67214
G1 X108.974 Y93.266 E11.69437
G1 X109.846 Y93.605 E11.72549
G1 X110.653 Y93.984 E11.75514
G1 X111.397 Y94.398 E11.78346
G1 X112.096 Y94.853 E11.81120
G1 X112.828 Y95.405 E11.84170
G1 X113.401 Y95.901 E11.86690
G1 X114.059 Y96.557 E11.89781
G1 X114.595 Y97.17 E11.92489
G1 X115.121 Y97.867 E11.95393
G1 X115.602 Y98.604 E11.98320
G1 X116.002 Y99.317 E12.01040
G1 X116.366 Y100.085 E12.03866
G1 X116.685 Y100.902 E12.06783
G1 X116.94 Y101.717 E12.09624
G1 X117.137 Y102.541 E12.12442
G1 X117.278 Y103.39 E12.15304
G1 X117.359 Y104.228 E12.18104
G1 X117.382 Y105.091 E12.20976
G1 X117.345 Y105.967 E12.23892
G1 X117.253 Y106.787 E12.26636
G1 X117.097 Y107.642 E12.29527
G1 X116.888 Y108.469 E12.32364
G1 X116.631 Y109.253 E12.35108
G1 X116.294 Y110.077 E12.38069
G1 X115.918 Y110.845 E12.40913
G1 X115.503 Y111.56 E12.43663
G1 X115.012 Y112.287 E12.46581
G1 X114.468 Y112.981 E12.49514
G1 X113.945 Y113.563 E12.52116
G1 X113.279 Y114.208 E12.55200
G1 X112.664 Y114.727 E12.57876
G1 X111.958 Y115.243 E12.60785
G1 X111.232 Y115.7 E12.63638
G1 X110.476 Y116.106 E12.66492
G1 X109.69 Y116.461 E12.69361
G1 X108.828 Y116.78 E12.72418
G1 X108.25 Y116.956 E12.74427
G1 X107.3 Y117.168 E12.77665
G1 X106.378 Y117.306 E12.80765
G1 X105.558 Y117.371 E12.83501
G1 X104.703 Y117.38 E12.86345
G1 X103.823 Y117.327 E12.89277
G1 X102.986 Y117.218 E12.92085
G1 X102.186 Y117.058 E12.94798
G1 X101.318 Y116.822 E12.97790
G1 X100.531 Y116.548 E13.00562
G1 X99.717 Y116.199 E13.03507
G1 X98.966 Y115.814 E13.06314
G1 X98.174 Y115.336 E13.09391
G1 X97.687 Y115.002 E13.11355
G1 X96.901 Y114.367 E13.14716
G1 X96.263 Y113.774 E13.17613
G1 X95.664 Y113.135 E13.20526
G1 X95.133 Y112.482 E13.23326
G1 X94.631 Y111.771 E13.26220
G1 X94.204 Y111.067 E13.28959
G1 X93.79 Y110.259 E13.31979
G1 X93.473 Y109.527 E13.34632
G1 X93.183 Y108.7 E13.37547
G1 X92.951 Y107.856 E13.40458
G1 X92.791 Y107.068 E13.43132
G1 X92.671 Y106.148 E13.46218
G1 X92.622 Y105.354 E13.48864
G1 X92.628 Y104.478 E13.51778
G1 X92.691 Y103.649 E13.54543
G1 X92.821 Y102.765 E13.57515
G1 X92.999 Y101.948 E13.60296
G1 X93.243 Y101.115 E13.63183
G1 X93.543 Y100.301 E13.66068
G1 X93.866 Y99.578 E13.68702
G1 X94.297 Y98.774 E13.71736
G1 X94.733 Y98.077 E13.74470
G1 X95.251 Y97.365 E13.77399
G1 X95.78 Y96.733 E13.80140
G1 X96.257 Y96.239 E13.82424
G0 F1620 X96.395 Y96.095
M204 S3000
M205 X10 Y10
G0 F3600 X96.681 Y96.375
M204 S1800
M205 X8 Y8
G1 F1800 X97.299 Y95.819 E13.85189
G1 X97.978 Y95.285 E13.88062
G1 X98.506 Y94.922 E13.90193
G1 X99.327 Y94.445 E13.93351
G1 X100.075 Y94.076 E13.96126
G1 X100.857 Y93.755 E13.98937
G1 X101.596 Y93.511 E14.01526
G1 X102.466 Y93.289 E14.04512
G1 X103.238 Y93.147 E14.07123
G1 X104.057 Y93.054 E14.09864
G1 X104.894 Y93.016 E14.12651
G1 X105.727 Y93.038 E14.15422
G1 X106.527 Y93.114 E14.18095
G1 X107.399 Y93.259 E14.21035
G1 X108.24 Y93.459 E14.23910
G1 X108.829 Y93.639 E14.25959
G1 X109.701 Y93.978 E14.29071
G1 X110.481 Y94.345 E14.31938
G1 X111.2 Y94.746 E14.34676
G1 X111.875 Y95.186 E14.37356
G1 X112.585 Y95.723 E14.40317
G1 X113.137 Y96.202 E14.42748
G1 X113.775 Y96.838 E14.45744
G1 X114.291 Y97.431 E14.48358
G1 X114.8 Y98.105 E14.51167
G1 X115.266 Y98.821 E14.54009
G1 X115.652 Y99.51 E14.56636
G1 X116.003 Y100.254 E14.59372
G1 X116.312 Y101.045 E14.62196
G1 X116.557 Y101.834 E14.64944
G1 X116.747 Y102.631 E14.67669
G1 X116.883 Y103.453 E14.70440
G1 X116.96 Y104.263 E14.73147
G1 X116.983 Y105.099 E14.75928
G1 X116.946 Y105.947 E14.78751
G1 X116.856 Y106.739 E14.81402
G1 X116.704 Y107.567 E14.84202
G1 X116.5 Y108.368 E14.86952
G1 X116.251 Y109.126 E14.89605
G1 X115.925 Y109.923 E14.92469
G1 X115.56 Y110.667 E14.95226
G1 X115.158 Y111.357 E14.97882
G1 X114.682 Y112.061 E15.00708
G1 X114.155 Y112.733 E15.03548
G1 X113.65 Y113.294 E15.06059
G1 X113.002 Y113.919 E15.09053
G1 X112.409 Y114.419 E15.11633
G1 X111.724 Y114.918 E15.14452
G1 X111.021 Y115.36 E15.17214
G1 X110.289 Y115.753 E15.19977
G1 X109.528 Y116.096 E15.22754
G1 X108.692 Y116.404 E15.25717
G1 X108.154 Y116.568 E15.27588
G1 X107.216 Y116.777 E15.30784
G1 X106.321 Y116.91 E15.33793
G1 X105.53 Y116.972 E15.36432
G1 X104.702 Y116.98 E15.39186
G1 X103.85 Y116.927 E15.42026
G1 X103.04 Y116.822 E15.44742
G1 X102.267 Y116.666 E15.47365
G1 X101.425 Y116.437 E15.50267
G1 X100.666 Y116.171 E15.52942
G1 X99.877 Y115.832 E15.55798
G1 X99.151 Y115.459 E15.58513
G1 X98.382 Y114.995 E15.61500
G1 X97.929 Y114.684 E15.63328
G1 X97.155 Y114.058 E15.66639
G1 X96.537 Y113.483 E15.69446
G1 X95.958 Y112.863 E15.72268
G1 X95.445 Y112.232 E15.74973
G1 X94.959 Y111.542 E15.77780
G1 X94.547 Y110.862 E15.80424
G1 X94.147 Y110.079 E15.83349
G1 X93.841 Y109.37 E15.85917
G1 X93.561 Y108.571 E15.88733
G1 X93.337 Y107.752 E15.91557
G1 X93.184 Y106.992 E15.94136
G1 X93.067 Y106.098 E15.97134
G1 X93.021 Y105.332 E15.99687
G1 X93.028 Y104.484 E16.02507
G1 X93.09 Y103.682 E16.05183
G1 X93.216 Y102.825 E16.08064
G1 X93.389 Y102.036 E16.10750
G1 X93.626 Y101.23 E16.13545
G1 X93.918 Y100.442 E16.16340
G1 X94.23 Y99.744 E16.18883
G1 X94.648 Y98.966 E16.21820
G1 X95.071 Y98.291 E16.24469
G1 X95.573 Y97.602 E16.27305
G1 X96.085 Y96.992 E16.29954
G1 X96.542 Y96.518 E16.32144
G0 F1620 X96.681 Y96.375
M204 S3000
M205 X10 Y10
G0 F3600 X96.967 Y96.654
M204 S1800
M205 X8 Y8
G1 F1800 X97.565 Y96.118 E16.34815
G1 X98.224 Y95.601 E16.37600
G1 X98.707 Y95.268 E16.39552
G1 X99.528 Y94.791 E16.42710
G1 X100.249 Y94.436 E16.45383
G1 X101.007 Y94.126 E16.48107
G1 X101.719 Y93.891 E16.50600
G1 X102.562 Y93.677 E16.53493
G1 X103.308 Y93.541 E16.56015
G1 X104.1 Y93.451 E16.58666
G1 X104.909 Y93.416 E16.61360
G1 X105.714 Y93.438 E16.64038
G1 X106.487 Y93.512 E16.66621
G1 X107.331 Y93.653 E16.69467
G1 X108.146 Y93.847 E16.72253
G1 X108.684 Y94.012 E16.74125
G1 X109.556 Y94.351 E16.77237
G1 X110.308 Y94.706 E16.80003
G1 X111.003 Y95.094 E16.82650
G1 X111.655 Y95.52 E16.85240
