;FLAVOR:Marlin
;TIME:478
;Filament used: 0.831126m
;Layer height: 0.3
;MINX:91.423
;MINY:91.418
;MINZ:0.2
;MAXX:118.582
;MAXY:118.58
;MAXZ:9.8
;Generated with Cura_SteamEngine 4.5.0
M140 S60
M105
M190 S60
M104 S210
M105
M109 S210
M82 ;absolute extrusion mode
G21 ;metric values
G90 ;absolute positioning
M82 ;set extruder to absolute mode
M107 ;start with the fan off
G28 X0 Y0 ;move X/Y to min endstops
G28 Z0 ;move Z to min endstops
G1 Z15.0 F120 ;move the platform down 15mm
G92 E0 ;zero the extruded length
G1 F200 E3 ;extrude 3mm of feed stock
G92 E0 ;zero the extruded length again
G1 F120
G0 Y20 F120
M117 Printing...
G5
G92 E0
G92 E0
G1 F3000 E-6
;LAYER_COUNT:33
;LAYER:0
M107
M204 S3000
M205 X10 Y10
G1 F1800 Z0.275
G0 F3600 X95.537 Y95.257 Z0.275
M204 S1800
M205 X8 Y8
;TYPE:SKIRT
G1 F1800 Z0.2
G1 F3000 E0
G1 F1800 X96.235 Y94.623 E0.03136
G1 X96.997 Y94.021 E0.06366
G1 X97.448 Y93.701 E0.08205
G1 X98.523 Y93.061 E0.12367
G1 X99.377 Y92.636 E0.15539
G1 X100.259 Y92.272 E0.18713
G1 X101.102 Y91.989 E0.2167
G1 X102.078 Y91.736 E0.25024
G1 X102.958 Y91.571 E0.28002
G1 X103.885 Y91.463 E0.31106
G1 X104.832 Y91.418 E0.34259
G1 X105.777 Y91.439 E0.37403
G1 X106.688 Y91.522 E0.40446
G1 X107.669 Y91.682 E0.43752
G1 X108.619 Y91.904 E0.46996
G1 X109.138 Y92.055 E0.48794
G1 X110.28 Y92.487 E0.52855
G1 X111.171 Y92.901 E0.56123
G1 X111.987 Y93.353 E0.59225
G1 X112.757 Y93.851 E0.62275
G1 X113.557 Y94.452 E0.65603
G1 X114.194 Y95 E0.68398
G1 X114.911 Y95.712 E0.71759
G1 X115.504 Y96.387 E0.74747
G1 X116.083 Y97.15 E0.77933
G1 X116.611 Y97.955 E0.81135
G1 X117.052 Y98.737 E0.84121
G1 X117.454 Y99.579 E0.87224
G1 X117.806 Y100.473 E0.9042
G1 X118.088 Y101.367 E0.93538
G1 X118.306 Y102.269 E0.96624
G1 X118.463 Y103.201 E0.99768
G1 X118.554 Y104.121 E1.02843
G1 X118.582 Y105.065 E1.05984
G1 X118.544 Y106.026 E1.09183
G1 X118.445 Y106.929 E1.12204
G1 X118.276 Y107.865 E1.15368
G1 X118.049 Y108.771 E1.18474
G1 X117.769 Y109.634 E1.21492
G1 X117.402 Y110.538 E1.24737
G1 X116.992 Y111.38 E1.27852
G1 X116.536 Y112.17 E1.30886
G1 X116.002 Y112.965 E1.34071
G1 X115.407 Y113.728 E1.37289
G1 X114.833 Y114.371 E1.40156
G1 X114.108 Y115.076 E1.43519
G1 X113.431 Y115.65 E1.46471
G1 X112.659 Y116.216 E1.49655
G1 X111.864 Y116.72 E1.52786
G1 X111.037 Y117.167 E1.55913
G1 X110.178 Y117.558 E1.59052
G1 X109.237 Y117.908 E1.62391
G1 X108.724 Y118.07 E1.6418
G1 X108.209 Y118.201 E1.65948
G1 X107.553 Y118.342 E1.68179
G1 X106.547 Y118.494 E1.71563
G1 X105.644 Y118.568 E1.74577
G1 X104.709 Y118.58 E1.77687
G1 X103.741 Y118.524 E1.80912
G1 X102.824 Y118.407 E1.83987
G1 X101.943 Y118.233 E1.86973
G1 X100.997 Y117.979 E1.90231
G1 X100.127 Y117.678 E1.93293
G1 X99.237 Y117.299 E1.96511
G1 X98.411 Y116.878 E1.99594
G1 X97.548 Y116.361 E2.0294
G1 X97.095 Y116.055 E2.04758
G1 X96.683 Y115.743 E2.06477
G1 X96.137 Y115.293 E2.08831
G1 X95.441 Y114.649 E2.11984
G1 X94.783 Y113.949 E2.1518
G1 X94.198 Y113.233 E2.18255
G1 X93.646 Y112.458 E2.2142
G1 X93.173 Y111.682 E2.24442
G1 X92.718 Y110.799 E2.27746
G1 X92.369 Y109.997 E2.30655
G1 X92.048 Y109.09 E2.33855
G1 X91.792 Y108.166 E2.37044
G1 X91.613 Y107.298 E2.39992
G1 X91.48 Y106.297 E2.43351
G1 X91.423 Y105.419 E2.46277
G1 X91.428 Y104.461 E2.49463
G1 X91.495 Y103.55 E2.52502
G1 X91.634 Y102.583 E2.55751
G1 X91.829 Y101.683 E2.58814
G1 X92.093 Y100.771 E2.61972
G1 X92.421 Y99.878 E2.65136
G1 X92.774 Y99.081 E2.68035
G1 X93.242 Y98.201 E2.7135
G1 X93.721 Y97.433 E2.7436
G1 X94.286 Y96.652 E2.77567
G1 X94.866 Y95.956 E2.8058
G1 X95.399 Y95.401 E2.83139
G0 F1620 X95.537 Y95.257
M204 S3000
M205 X10 Y10
G0 F3600 X95.823 Y95.536
M204 S1800
M205 X8 Y8
G1 F1800 X96.501 Y94.922 E2.86182
G1 X97.243 Y94.337 E2.89324
G1 X97.677 Y94.029 E2.91094
G1 X98.724 Y93.407 E2.95145
G1 X99.552 Y92.996 E2.98219
G1 X100.408 Y92.643 E3.01299
G1 X101.225 Y92.369 E3.04165
G1 X102.175 Y92.124 E3.07428
G1 X103.028 Y91.965 E3.10314
G1 X103.928 Y91.861 E3.13327
G1 X104.847 Y91.817 E3.16388
G1 X105.765 Y91.839 E3.19442
G1 X106.648 Y91.92 E3.22391
G1 X107.602 Y92.076 E3.25606
G1 X108.524 Y92.293 E3.28756
G1 X109.023 Y92.438 E3.30485
G1 X110.135 Y92.859 E3.34439
G1 X110.998 Y93.262 E3.37607
G1 X111.791 Y93.701 E3.40622
G1 X112.537 Y94.185 E3.4358
G1 X113.314 Y94.769 E3.46813
G1 X113.93 Y95.3 E3.49518
G1 X114.627 Y95.994 E3.52789
G1 X115.201 Y96.648 E3.55683
G1 X115.763 Y97.389 E3.58776
G1 X116.275 Y98.171 E3.61885
G1 X116.702 Y98.93 E3.64782
G1 X117.091 Y99.748 E3.67794
G1 X117.432 Y100.616 E3.70896
G1 X117.705 Y101.484 E3.73923
G1 X117.916 Y102.36 E3.7692
G1 X118.068 Y103.264 E3.79968
G1 X118.155 Y104.157 E3.82953
G1 X118.182 Y105.074 E3.86004
G1 X118.144 Y106.006 E3.89106
G1 X118.048 Y106.881 E3.92034
G1 X117.883 Y107.79 E3.95107
G1 X117.662 Y108.671 E3.98128
G1 X117.389 Y109.507 E4.01053
G1 X117.033 Y110.384 E4.04201
G1 X116.634 Y111.202 E4.07228
G1 X116.192 Y111.967 E4.10167
G1 X115.672 Y112.739 E4.13262
G1 X115.094 Y113.479 E4.16386
G1 X114.537 Y114.102 E4.19165
G1 X113.832 Y114.787 E4.22434
G1 X113.175 Y115.342 E4.25295
G1 X112.425 Y115.892 E4.28388
G1 X111.653 Y116.38 E4.31426
G1 X110.85 Y116.813 E4.3446
G1 X110.015 Y117.192 E4.3751
G1 X109.101 Y117.532 E4.40754
G1 X108.607 Y117.687 E4.42476
G1 X107.468 Y117.951 E4.46365
G1 X106.491 Y118.098 E4.49651
G1 X105.616 Y118.169 E4.5257
G1 X104.707 Y118.18 E4.55594
G1 X103.769 Y118.125 E4.58719
G1 X102.878 Y118.011 E4.61707
G1 X102.024 Y117.841 E4.64603
G1 X101.104 Y117.593 E4.67772
G1 X100.262 Y117.301 E4.70736
G1 X99.397 Y116.932 E4.73864
G1 X98.596 Y116.523 E4.76855
G1 X97.757 Y116.019 E4.80111
G1 X97.322 Y115.726 E4.81855
G1 X96.392 Y114.984 E4.85812
G1 X95.715 Y114.357 E4.88881
G1 X95.076 Y113.677 E4.91985
G1 X94.509 Y112.983 E4.94966
G1 X93.974 Y112.229 E4.98041
G1 X93.517 Y111.477 E5.00967
G1 X93.075 Y110.619 E5.04177
G1 X92.737 Y109.84 E5.07002
G1 X92.426 Y108.96 E5.10106
G1 X92.178 Y108.063 E5.13201
G1 X92.006 Y107.221 E5.1606
G1 X91.877 Y106.247 E5.19328
G1 X91.823 Y105.398 E5.22157
G1 X91.828 Y104.467 E5.25254
G1 X91.894 Y103.583 E5.28202
G1 X92.03 Y102.644 E5.31358
G1 X92.219 Y101.771 E5.34329
G1 X92.476 Y100.886 E5.37394
G1 X92.795 Y100.019 E5.40466
G1 X93.138 Y99.247 E5.43276
G1 X93.594 Y98.392 E5.46499
G1 X94.058 Y97.648 E5.49415
G1 X94.607 Y96.89 E5.52528
G1 X95.17 Y96.215 E5.55452
G1 X95.685 Y95.68 E5.57922
G0 F1620 X95.823 Y95.536
M204 S3000
M205 X10 Y10
G0 F3600 X96.109 Y95.816
M204 S1800
M205 X8 Y8
G1 F1800 X96.767 Y95.221 E5.60872
G1 X97.488 Y94.653 E5.63925
G1 X97.906 Y94.356 E5.65631
G1 X98.925 Y93.753 E5.69569
G1 X99.726 Y93.356 E5.72542
G1 X100.558 Y93.014 E5.75534
G1 X101.349 Y92.75 E5.78308
G1 X102.272 Y92.512 E5.81478
G1 X103.098 Y92.359 E5.84272
G1 X103.971 Y92.258 E5.87195
G1 X104.863 Y92.217 E5.90165
G1 X105.752 Y92.238 E5.93122
G1 X106.608 Y92.318 E5.95982
G1 X107.534 Y92.47 E5.99103
G1 X108.43 Y92.682 E6.02165
G1 X109.119 Y92.893 E6.04562
G1 X109.991 Y93.232 E6.07674
G1 X110.826 Y93.623 E6.1074
G1 X111.594 Y94.049 E6.13661
G1 X112.316 Y94.519 E6.16527
G1 X113.071 Y95.087 E6.19669
G1 X113.665 Y95.601 E6.22282
G1 X114.343 Y96.275 E6.25462
G1 X114.898 Y96.909 E6.28264
G1 X115.442 Y97.628 E6.31263
G1 X115.939 Y98.388 E6.34283
G1 X116.352 Y99.123 E6.37087
G1 X116.729 Y99.917 E6.40011
G1 X117.059 Y100.759 E6.43019
G1 X117.322 Y101.6 E6.45949
G1 X117.526 Y102.45 E6.48857
G1 X117.673 Y103.327 E6.51814
G1 X117.757 Y104.192 E6.54705
G1 X117.782 Y105.082 E6.57666
G1 X117.745 Y105.987 E6.60679
G1 X117.65 Y106.834 E6.63514
G1 X117.49 Y107.716 E6.66495
G1 X117.275 Y108.57 E6.69424
G1 X117.01 Y109.38 E6.72259
G1 X116.663 Y110.23 E6.75312
G1 X116.276 Y111.023 E6.78247
G1 X115.847 Y111.764 E6.81095
G1 X115.342 Y112.513 E6.84099
G1 X114.781 Y113.23 E6.87127
G1 X114.241 Y113.832 E6.89817
G1 X113.555 Y114.497 E6.92995
G1 X112.92 Y115.034 E6.95761
G1 X112.192 Y115.567 E6.98762
G1 X111.443 Y116.04 E7.01708
G1 X110.663 Y116.46 E7.04655
G1 X109.853 Y116.827 E7.07612
G1 X108.964 Y117.156 E7.10765
G1 X108.345 Y117.345 E7.12918
G1 X107.384 Y117.559 E7.16192
G1 X106.434 Y117.702 E7.19388
G1 X105.587 Y117.77 E7.22214
G1 X104.705 Y117.78 E7.25148
G1 X103.796 Y117.726 E7.28176
G1 X102.932 Y117.614 E7.31074
G1 X102.105 Y117.45 E7.33878
G1 X101.211 Y117.208 E7.36959
G1 X100.396 Y116.925 E7.39828
G1 X99.557 Y116.566 E7.42863
G1 X98.781 Y116.169 E7.45763
G1 X97.965 Y115.678 E7.4893
G1 X97.55 Y115.396 E7.50599
G1 X96.646 Y114.676 E7.54443
G1 X95.989 Y114.066 E7.57425
G1 X95.37 Y113.406 E7.60434
G1 X94.821 Y112.733 E7.63323
G1 X94.303 Y112 E7.66308
G1 X93.86 Y111.272 E7.69142
G1 X93.432 Y110.439 E7.72257
G1 X93.105 Y109.684 E7.74994
G1 X92.804 Y108.83 E7.78006
G1 X92.564 Y107.959 E7.81011
G1 X92.399 Y107.145 E7.83773
G1 X92.274 Y106.198 E7.8695
G1 X92.222 Y105.376 E7.89689
G1 X92.228 Y104.473 E7.92693
G1 X92.293 Y103.616 E7.95551
G1 X92.425 Y102.704 E7.98616
G1 X92.609 Y101.859 E8.01493
G1 X92.86 Y101 E8.04469
G1 X93.169 Y100.16 E8.07446
G1 X93.502 Y99.413 E8.10166
G1 X93.945 Y98.583 E8.13296
G1 X94.396 Y97.862 E8.16124
G1 X94.929 Y97.127 E8.19144
G1 X95.475 Y96.474 E8.21975
G1 X95.971 Y95.96 E8.24351
G0 F1620 X96.109 Y95.816
M204 S3000
M205 X10 Y10
G0 F3600 X96.395 Y96.095
M204 S1800
M205 X8 Y8
G1 F1800 X97.033 Y95.52 E8.27207
G1 X97.733 Y94.969 E8.3017
G1 X98.305 Y94.576 E8.32479
G1 X99.126 Y94.099 E8.35637
G1 X99.9 Y93.716 E8.38509
G1 X100.708 Y93.384 E8.41414
G1 X101.472 Y93.13 E8.44092
G1 X102.369 Y92.9 E8.47172
G1 X103.168 Y92.753 E8.49874
G1 X104.014 Y92.656 E8.52706
G1 X104.878 Y92.617 E8.55583
G1 X105.739 Y92.638 E8.58448
G1 X106.567 Y92.716 E8.61214
G1 X107.467 Y92.865 E8.64248
G1 X108.335 Y93.07 E8.67214
G1 X108.974 Y93.266 E8.69437
G1 X109.846 Y93.605 E8.72549
G1 X110.653 Y93.984 E8.75514
G1 X111.397 Y94.398 E8.78346
G1 X112.096 Y94.853 E8.8112
G1 X112.828 Y95.405 E8.8417
G1 X113.401 Y95.901 E8.8669
G1 X114.059 Y96.557 E8.89781
G1 X114.595 Y97.17 E8.92489
G1 X115.121 Y97.867 E8.95393
G1 X115.602 Y98.604 E8.9832
G1 X116.002 Y99.317 E9.0104
G1 X116.366 Y100.085 E9.03866
G1 X116.685 Y100.902 E9.06783
G1 X116.94 Y101.717 E9.09624
G1 X117.137 Y102.541 E9.12442
G1 X117.278 Y103.39 E9.15304
G1 X117.359 Y104.228 E9.18104
G1 X117.382 Y105.091 E9.20976
G1 X117.345 Y105.967 E9.23892
G1 X117.253 Y106.787 E9.26636
G1 X117.097 Y107.642 E9.29527
G1 X116.888 Y108.469 E9.32364
G1 X116.631 Y109.253 E9.35108
G1 X116.294 Y110.077 E9.38069
G1 X115.918 Y110.845 E9.40913
G1 X115.503 Y111.56 E9.43663
G1 X115.012 Y112.287 E9.46581
G1 X114.468 Y112.981 E9.49514
G1 X113.945 Y113.563 E9.52116
G1 X113.279 Y114.208 E9.552
G1 X112.664 Y114.727 E9.57876
G1 X111.958 Y115.243 E9.60785
G1 X111.232 Y115.7 E9.63638
G1 X110.476 Y116.106 E9.66492
G1 X109.69 Y116.461 E9.69361
G1 X108.828 Y116.78 E9.72418
G1 X108.25 Y116.956 E9.74427
G1 X107.3 Y117.168 E9.77665
G1 X106.378 Y117.306 E9.80765
G1 X105.558 Y117.371 E9.83501
G1 X104.703 Y117.38 E9.86345
G1 X103.823 Y117.327 E9.89277
G1 X102.986 Y117.218 E9.92085
G1 X102.186 Y117.058 E9.94798
G1 X101.318 Y116.822 E9.9779
G1 X100.531 Y116.548 E10.00562
G1 X99.717 Y116.199 E10.03507
G1 X98.966 Y115.814 E10.06314
G1 X98.174 Y115.336 E10.09391
G1 X97.687 Y115.002 E10.11355
G1 X96.901 Y114.367 E10.14716
G1 X96.263 Y113.774 E10.17613
G1 X95.664 Y113.135 E10.20526
G1 X95.133 Y112.482 E10.23326
G1 X94.631 Y111.771 E10.2622
G1 X94.204 Y111.067 E10.28959
G1 X93.79 Y110.259 E10.31979
G1 X93.473 Y109.527 E10.34632
G1 X93.183 Y108.7 E10.37547
G1 X92.951 Y107.856 E10.40458
G1 X92.791 Y107.068 E10.43132
G1 X92.671 Y106.148 E10.46218
G1 X92.622 Y105.354 E10.48864
G1 X92.628 Y104.478 E10.51778
G1 X92.691 Y103.649 E10.54543
G1 X92.821 Y102.765 E10.57515
G1 X92.999 Y101.948 E10.60296
G1 X93.243 Y101.115 E10.63183
G1 X93.543 Y100.301 E10.66068
G1 X93.866 Y99.578 E10.68702
G1 X94.297 Y98.774 E10.71736
G1 X94.733 Y98.077 E10.7447
G1 X95.251 Y97.365 E10.77399
G1 X95.78 Y96.733 E10.8014
G1 X96.257 Y96.239 E10.82424
G0 F1620 X96.395 Y96.095
M204 S3000
M205 X10 Y10
G0 F3600 X96.681 Y96.375
M204 S1800
M205 X8 Y8
G1 F1800 X97.299 Y95.819 E10.85189
G1 X97.978 Y95.285 E10.88062
G1 X98.506 Y94.922 E10.90193
G1 X99.327 Y94.445 E10.93351
G1 X100.075 Y94.076 E10.96126
G1 X100.857 Y93.755 E10.98937
G1 X101.596 Y93.511 E11.01526
G1 X102.466 Y93.289 E11.04512
G1 X103.238 Y93.147 E11.07123
G1 X104.057 Y93.054 E11.09864
G1 X104.894 Y93.016 E11.12651
G1 X105.727 Y93.038 E11.15422
G1 X106.527 Y93.114 E11.18095
G1 X107.399 Y93.259 E11.21035
G1 X108.24 Y93.459 E11.2391
G1 X108.829 Y93.639 E11.25959
G1 X109.701 Y93.978 E11.29071
G1 X110.481 Y94.345 E11.31938
G1 X111.2 Y94.746 E11.34676
G1 X111.875 Y95.186 E11.37356
G1 X112.585 Y95.723 E11.40317
G1 X113.137 Y96.202 E11.42748
G1 X113.775 Y96.838 E11.45744
G1 X114.291 Y97.431 E11.48358
G1 X114.8 Y98.105 E11.51167
G1 X115.266 Y98.821 E11.54009
G1 X115.652 Y99.51 E11.56636
G1 X116.003 Y100.254 E11.59372
G1 X116.312 Y101.045 E11.62196
G1 X116.557 Y101.834 E11.64944
G1 X116.747 Y102.631 E11.67669
G1 X116.883 Y103.453 E11.7044
G1 X116.96 Y104.263 E11.73147
G1 X116.983 Y105.099 E11.75928
G1 X116.946 Y105.947 E11.78751
G1 X116.856 Y106.739 E11.81402
G1 X116.704 Y107.567 E11.84202
G1 X116.5 Y108.368 E11.86952
G1 X116.251 Y109.126 E11.89605
G1 X115.925 Y109.923 E11.92469
G1 X115.56 Y110.667 E11.95226
G1 X115.158 Y111.357 E11.97882
G1 X114.682 Y112.061 E12.00708
G1 X114.155 Y112.733 E12.03548
G1 X113.65 Y113.294 E12.06059
G1 X113.002 Y113.919 E12.09053
G1 X112.409 Y114.419 E12.11633
G1 X111.724 Y114.918 E12.14452
G1 X111.021 Y115.36 E12.17214
G1 X110.289 Y115.753 E12.19977
G1 X109.528 Y116.096 E12.22754
G1 X108.692 Y116.404 E12.25717
G1 X108.154 Y116.568 E12.27588
G1 X107.216 Y116.777 E12.30784
G1 X106.321 Y116.91 E12.33793
G1 X105.53 Y116.972 E12.36432
G1 X104.702 Y116.98 E12.39186
G1 X103.85 Y116.927 E12.42026
G1 X103.04 Y116.822 E12.44742
G1 X102.267 Y116.666 E12.47365
G1 X101.425 Y116.437 E12.50267
G1 X100.666 Y116.171 E12.52942
G1 X99.877 Y115.832 E12.55798
G1 X99.151 Y115.459 E12.58513
G1 X98.382 Y114.995 E12.615
G1 X97.929 Y114.684 E12.63328
G1 X97.155 Y114.058 E12.66639
G1 X96.537 Y113.483 E12.69446
G1 X95.958 Y112.863 E12.72268
G1 X95.445 Y112.232 E12.74973
G1 X94.959 Y111.542 E12.7778
G1 X94.547 Y110.862 E12.80424
G1 X94.147 Y110.079 E12.83349
G1 X93.841 Y109.37 E12.85917
G1 X93.561 Y108.571 E12.88733
G1 X93.337 Y107.752 E12.91557
G1 X93.184 Y106.992 E12.94136
G1 X93.067 Y106.098 E12.97134
G1 X93.021 Y105.332 E12.99687
G1 X93.028 Y104.484 E13.02507
G1 X93.09 Y103.682 E13.05183
G1 X93.216 Y102.825 E13.08064
G1 X93.389 Y102.036 E13.1075
G1 X93.626 Y101.23 E13.13545
G1 X93.918 Y100.442 E13.1634
G1 X94.23 Y99.744 E13.18883
G1 X94.648 Y98.966 E13.2182
G1 X95.071 Y98.291 E13.24469
G1 X95.573 Y97.602 E13.27305
G1 X96.085 Y96.992 E13.29954
G1 X96.542 Y96.518 E13.32144
G0 F1620 X96.681 Y96.375
M204 S3000
M205 X10 Y10
G0 F3600 X96.967 Y96.654
M204 S1800
M205 X8 Y8
G1 F1800 X97.565 Y96.118 E13.34815
G1 X98.224 Y95.601 E13.376
G1 X98.707 Y95.268 E13.39552
G1 X99.528 Y94.791 E13.4271
G1 X100.249 Y94.436 E13.45383
G1 X101.007 Y94.126 E13.48107
G1 X101.719 Y93.891 E13.506
G1 X102.562 Y93.677 E13.53493
G1 X103.308 Y93.541 E13.56015
G1 X104.1 Y93.451 E13.58666
G1 X104.909 Y93.416 E13.6136
G1 X105.714 Y93.438 E13.64038
G1 X106.487 Y93.512 E13.66621
G1 X107.331 Y93.653 E13.69467
G1 X108.146 Y93.847 E13.72253
G1 X108.684 Y94.012 E13.74125
G1 X109.556 Y94.351 E13.77237
G1 X110.308 Y94.706 E13.80003
G1 X111.003 Y95.094 E13.8265
G1 X111.655 Y95.52 E13.8524
G1 X112.343 Y96.041 E13.88111
G1 X112.873 Y96.502 E13.90447
G1 X113.491 Y97.12 E13.93354
G1 X113.988 Y97.692 E13.95874
G1 X114.479 Y98.344 E13.98589
