;FLAVOR:Marlin
;TIME:431
;Filament used: 0.727352m
;Layer height: 0.3
;MINX:91.418
;MINY:91.42
;MINZ:0.2
;MAXX:118.577
;MAXY:118.582
;MAXZ:9.8
;Generated with Cura_SteamEngine 4.5.0
M140 S60
M105
M190 S60
M104 S210
M105
M109 S210
M82 ;absolute extrusion mode
G21 ;metric values
G90 ;absolute positioning
M82 ;set extruder to absolute mode
M107 ;start with the fan off
G28 X0 Y0 ;move X/Y to min endstops
G28 Z0 ;move Z to min endstops
G1 Z15.0 F120 ;move the platform down 15mm
G92 E0 ;zero the extruded length
G1 F200 E3.00000;extrude 3mm of feed stock
G92 E0 ;zero the extruded length again
G1 F120
G0 Y20 F120
M117 Printing...
G5
G92 E0
G92 E0
G1 F3000 E-6
;LAYER_COUNT:33
;LAYER:0
M107
M204 S3000
M205 X10 Y10
G1 F1800 Z0.275
G0 F3600 X95.17 Y95.627 Z0.275
M204 S1800
M205 X8 Y8
;TYPE:SKIRT
G1 F1800 Z0.2
G1 F3000 E3.00000
G1 F1800 X95.892 Y94.924 E3.03352
G1 X96.569 Y94.35 E3.06304
G1 X97.341 Y93.784 E3.09488
G1 X98.136 Y93.28 E3.12618
G1 X98.963 Y92.833 E3.15745
G1 X99.822 Y92.442 E3.18884
G1 X100.763 Y92.092 E3.22223
G1 X101.276 Y91.93 E3.24013
G1 X101.791 Y91.799 E3.25780
G1 X102.447 Y91.658 E3.28012
G1 X103.453 Y91.506 E3.31396
G1 X104.356 Y91.432 E3.34409
G1 X105.291 Y91.42 E3.37519
G1 X106.259 Y91.476 E3.40744
G1 X107.176 Y91.593 E3.43819
G1 X108.057 Y91.767 E3.46806
G1 X109.003 Y92.021 E3.50064
G1 X109.873 Y92.322 E3.53126
G1 X110.763 Y92.701 E3.56343
G1 X111.589 Y93.122 E3.59427
G1 X112.452 Y93.639 E3.62773
G1 X112.905 Y93.945 E3.64591
G1 X113.316 Y94.256 E3.66305
G1 X113.863 Y94.707 E3.68663
G1 X114.558 Y95.35 E3.71812
G1 X115.216 Y96.05 E3.75007
G1 X115.802 Y96.766 E3.78085
G1 X116.353 Y97.542 E3.81250
G1 X116.826 Y98.317 E3.84270
G1 X117.281 Y99.199 E3.87571
G1 X117.631 Y100.002 E3.90484
G1 X117.951 Y100.906 E3.93674
G1 X118.209 Y101.835 E3.96881
G1 X118.386 Y102.698 E3.99811
G1 X118.52 Y103.702 E4.03180
G1 X118.577 Y104.581 E4.06110
G1 X118.572 Y105.539 E4.09296
G1 X118.505 Y106.45 E4.12334
G1 X118.366 Y107.417 E4.15583
G1 X118.171 Y108.317 E4.18646
G1 X117.91 Y109.219 E4.21769
G1 X117.581 Y110.119 E4.24957
G1 X117.226 Y110.919 E4.27868
G1 X116.758 Y111.799 E4.31183
G1 X116.279 Y112.567 E4.34193
G1 X115.714 Y113.348 E4.37399
G1 X115.134 Y114.044 E4.40412
G1 X114.463 Y114.743 E4.43635
G1 X113.765 Y115.377 E4.46771
G1 X113.003 Y115.979 E4.50001
G1 X112.555 Y116.297 E4.51829
G1 X111.483 Y116.935 E4.55978
G1 X110.623 Y117.364 E4.59174
G1 X109.741 Y117.728 E4.62348
G1 X108.898 Y118.011 E4.65305
G1 X107.922 Y118.264 E4.68659
G1 X107.042 Y118.429 E4.71637
G1 X106.115 Y118.537 E4.74741
G1 X105.168 Y118.582 E4.77894
G1 X104.223 Y118.561 E4.81038
G1 X103.312 Y118.478 E4.84081
G1 X102.331 Y118.318 E4.87387
G1 X101.381 Y118.096 E4.90631
G1 X100.862 Y117.945 E4.92429
G1 X99.72 Y117.513 E4.96490
G1 X98.829 Y117.099 E4.99758
G1 X98.013 Y116.647 E5.02861
G1 X97.243 Y116.149 E5.05910
G1 X96.441 Y115.547 E5.09246
G1 X95.805 Y114.999 E5.12038
G1 X95.088 Y114.287 E5.15399
G1 X94.495 Y113.612 E5.18387
G1 X93.916 Y112.849 E5.21573
G1 X93.388 Y112.044 E5.24775
G1 X92.947 Y111.261 E5.27764
G1 X92.546 Y110.421 E5.30860
G1 X92.194 Y109.524 E5.34065
G1 X91.912 Y108.632 E5.37176
G1 X91.695 Y107.732 E5.40255
G1 X91.537 Y106.797 E5.43409
G1 X91.446 Y105.879 E5.46478
G1 X91.418 Y104.935 E5.49619
G1 X91.456 Y103.974 E5.52817
G1 X91.555 Y103.071 E5.55839
G1 X91.724 Y102.135 E5.59002
G1 X91.951 Y101.229 E5.62109
G1 X92.231 Y100.366 E5.65127
G1 X92.598 Y99.462 E5.68372
G1 X93.008 Y98.62 E5.71486
G1 X93.464 Y97.829 E5.74523
G1 X94.001 Y97.03 E5.77725
G1 X94.593 Y96.272 E5.80924
G1 X95.037 Y95.776 E5.83138
G0 F1620 X95.17 Y95.627
M204 S3000
M205 X10 Y10
G0 F3600 X95.466 Y95.896
M204 S1800
M205 X8 Y8
G1 F1800 X96.168 Y95.213 E5.86396
G1 X96.825 Y94.658 E5.89256
G1 X97.575 Y94.108 E5.92350
G1 X98.347 Y93.62 E5.95387
G1 X99.15 Y93.187 E5.98422
G1 X99.985 Y92.808 E6.01472
G1 X100.899 Y92.468 E6.04715
G1 X101.393 Y92.313 E6.06437
G1 X102.532 Y92.049 E6.10326
G1 X103.509 Y91.902 E6.13612
G1 X104.384 Y91.831 E6.16532
G1 X105.293 Y91.82 E6.19555
G1 X106.231 Y91.875 E6.22680
G1 X107.122 Y91.989 E6.25668
G1 X107.976 Y92.159 E6.28564
G1 X108.896 Y92.407 E6.31733
G1 X109.738 Y92.699 E6.34698
G1 X110.603 Y93.068 E6.37825
G1 X111.404 Y93.477 E6.40817
G1 X112.243 Y93.981 E6.44072
G1 X112.678 Y94.274 E6.45816
G1 X113.609 Y95.016 E6.49776
G1 X114.284 Y95.642 E6.52838
G1 X114.923 Y96.322 E6.55942
G1 X115.49 Y97.016 E6.58922
G1 X116.025 Y97.771 E6.62000
G1 X116.482 Y98.522 E6.64924
G1 X116.924 Y99.38 E6.68134
G1 X117.263 Y100.158 E6.70957
G1 X117.573 Y101.036 E6.74054
G1 X117.822 Y101.938 E6.77166
G1 X117.994 Y102.775 E6.80008
G1 X118.123 Y103.752 E6.83286
G1 X118.177 Y104.603 E6.86122
G1 X118.172 Y105.533 E6.89215
G1 X118.106 Y106.417 E6.92163
G1 X117.97 Y107.356 E6.95319
G1 X117.781 Y108.229 E6.98290
G1 X117.527 Y109.104 E7.01320
G1 X117.206 Y109.978 E7.04417
G1 X116.862 Y110.753 E7.07237
G1 X116.406 Y111.608 E7.10460
G1 X115.942 Y112.352 E7.13377
G1 X115.393 Y113.11 E7.16490
G1 X114.83 Y113.785 E7.19413
G1 X114.177 Y114.464 E7.22546
G1 X113.499 Y115.078 E7.25589
G1 X112.757 Y115.663 E7.28731
G1 X112.326 Y115.969 E7.30489
G1 X111.282 Y116.589 E7.34528
G1 X110.449 Y117.004 E7.37623
G1 X109.592 Y117.357 E7.40706
G1 X108.775 Y117.631 E7.43572
G1 X107.825 Y117.876 E7.46835
G1 X106.972 Y118.035 E7.49721
G1 X106.072 Y118.139 E7.52734
G1 X105.153 Y118.183 E7.55795
G1 X104.235 Y118.161 E7.58849
G1 X103.352 Y118.08 E7.61798
G1 X102.398 Y117.924 E7.65013
G1 X101.476 Y117.707 E7.68163
G1 X100.977 Y117.562 E7.69892
G1 X99.865 Y117.141 E7.73846
G1 X99.002 Y116.738 E7.77014
G1 X98.209 Y116.299 E7.80029
G1 X97.463 Y115.815 E7.82987
G1 X96.684 Y115.229 E7.86229
G1 X96.069 Y114.699 E7.88929
G1 X95.372 Y114.005 E7.92201
G1 X94.798 Y113.351 E7.95095
G1 X94.236 Y112.61 E7.98188
G1 X93.724 Y111.828 E8.01297
G1 X93.297 Y111.068 E8.04196
G1 X92.909 Y110.252 E8.07202
G1 X92.567 Y109.381 E8.10314
G1 X92.295 Y108.515 E8.13333
G1 X92.084 Y107.641 E8.16323
G1 X91.932 Y106.734 E8.19382
G1 X91.845 Y105.844 E8.22356
G1 X91.818 Y104.926 E8.25411
G1 X91.856 Y103.994 E8.28513
G1 X91.952 Y103.119 E8.31441
G1 X92.117 Y102.21 E8.34514
G1 X92.338 Y101.329 E8.37535
G1 X92.611 Y100.493 E8.40460
G1 X92.967 Y99.616 E8.43608
G1 X93.366 Y98.798 E8.46635
G1 X93.808 Y98.031 E8.49579
G1 X94.331 Y97.257 E8.52686
G1 X94.906 Y96.521 E8.55793
G1 X95.333 Y96.044 E8.57922
G0 F1620 X95.466 Y95.896
M204 S3000
M205 X10 Y10
G0 F3600 X95.761 Y96.165
M204 S1800
M205 X8 Y8
G1 F1800 X96.445 Y95.502 E8.61090
G1 X97.08 Y94.966 E8.63854
G1 X97.808 Y94.433 E8.66855
G1 X98.557 Y93.96 E8.69801
G1 X99.337 Y93.54 E8.72748
G1 X100.147 Y93.173 E8.75706
G1 X101.036 Y92.844 E8.78858
G1 X101.655 Y92.655 E8.81011
G1 X102.616 Y92.441 E8.84286
G1 X103.566 Y92.298 E8.87481
G1 X104.413 Y92.23 E8.90307
G1 X105.295 Y92.22 E8.93241
G1 X106.204 Y92.274 E8.96270
G1 X107.068 Y92.386 E8.99167
G1 X107.895 Y92.55 E9.01972
G1 X108.789 Y92.792 E9.05052
G1 X109.604 Y93.075 E9.07921
G1 X110.443 Y93.434 E9.10957
G1 X111.219 Y93.831 E9.13856
G1 X112.035 Y94.322 E9.17023
G1 X112.45 Y94.604 E9.18692
G1 X113.354 Y95.325 E9.22538
G1 X114.01 Y95.933 E9.25513
G1 X114.629 Y96.593 E9.28522
G1 X115.178 Y97.267 E9.31414
G1 X115.697 Y98 E9.34401
G1 X116.139 Y98.727 E9.37231
G1 X116.567 Y99.56 E9.40346
G1 X116.895 Y100.315 E9.43084
G1 X117.195 Y101.167 E9.46088
G1 X117.436 Y102.042 E9.49107
G1 X117.601 Y102.852 E9.51856
G1 X117.726 Y103.802 E9.55043
G1 X117.778 Y104.624 E9.57782
G1 X117.772 Y105.527 E9.60786
G1 X117.707 Y106.384 E9.63644
G1 X117.575 Y107.296 E9.66709
G1 X117.391 Y108.141 E9.69586
G1 X117.143 Y108.99 E9.72527
G1 X116.832 Y109.837 E9.75528
G1 X116.498 Y110.587 E9.78259
G1 X116.055 Y111.417 E9.81388
G1 X115.604 Y112.138 E9.84217
G1 X115.071 Y112.873 E9.87237
G1 X114.525 Y113.526 E9.90068
G1 X113.891 Y114.184 E9.93107
G1 X113.233 Y114.779 E9.96057
G1 X112.512 Y115.347 E9.99110
G1 X112.097 Y115.641 E10.00802
G1 X111.081 Y116.244 E10.04731
G1 X110.274 Y116.644 E10.07727
G1 X109.442 Y116.986 E10.10719
G1 X108.651 Y117.25 E10.13493
G1 X107.728 Y117.488 E10.16663
G1 X106.902 Y117.641 E10.19457
G1 X106.029 Y117.742 E10.22380
G1 X105.137 Y117.783 E10.25350
G1 X104.248 Y117.762 E10.28307
G1 X103.392 Y117.682 E10.31167
G1 X102.466 Y117.53 E10.34288
G1 X101.57 Y117.318 E10.37350
G1 X100.881 Y117.107 E10.39747
G1 X100.009 Y116.768 E10.42859
G1 X99.174 Y116.377 E10.45925
G1 X98.406 Y115.951 E10.48846
G1 X97.684 Y115.481 E10.51712
G1 X96.927 Y114.911 E10.54864
G1 X96.334 Y114.398 E10.57472
G1 X95.656 Y113.724 E10.60651
G1 X95.101 Y113.09 E10.63454
G1 X94.557 Y112.371 E10.66452
G1 X94.06 Y111.611 E10.69473
G1 X93.647 Y110.875 E10.72280
G1 X93.271 Y110.083 E10.75196
G1 X92.941 Y109.238 E10.78213
G1 X92.678 Y108.399 E10.81137
G1 X92.474 Y107.551 E10.84038
G1 X92.327 Y106.671 E10.87006
G1 X92.243 Y105.808 E10.89890
G1 X92.218 Y104.918 E10.92851
G1 X92.255 Y104.013 E10.95864
G1 X92.35 Y103.166 E10.98698
G1 X92.51 Y102.284 E11.01680
G1 X92.725 Y101.43 E11.04609
G1 X92.99 Y100.62 E11.07443
G1 X93.337 Y99.77 E11.10497
G1 X93.724 Y98.977 E11.13432
G1 X94.153 Y98.234 E11.16285
G1 X94.661 Y97.483 E11.19301
G1 X95.219 Y96.77 E11.22312
G1 X95.628 Y96.314 E11.24350
G0 F1620 X95.761 Y96.165
M204 S3000
M205 X10 Y10
G0 F3600 X96.057 Y96.435
M204 S1800
M205 X8 Y8
G1 F1800 X96.721 Y95.791 E11.27426
G1 X97.336 Y95.273 E11.30101
G1 X98.042 Y94.757 E11.33009
G1 X98.768 Y94.3 E11.35862
G1 X99.524 Y93.894 E11.38717
G1 X100.31 Y93.539 E11.41585
G1 X101.172 Y93.22 E11.44642
G1 X101.75 Y93.044 E11.46652
G1 X102.7 Y92.832 E11.49889
G1 X103.622 Y92.694 E11.52990
G1 X104.442 Y92.629 E11.55726
G1 X105.297 Y92.62 E11.58570
G1 X106.177 Y92.673 E11.61502
G1 X107.014 Y92.782 E11.64309
G1 X107.814 Y92.942 E11.67023
G1 X108.682 Y93.178 E11.70015
G1 X109.469 Y93.452 E11.72786
G1 X110.283 Y93.801 E11.75732
G1 X111.034 Y94.186 E11.78539
G1 X111.826 Y94.664 E11.81616
G1 X112.311 Y94.996 E11.83571
G1 X113.1 Y95.633 E11.86943
G1 X113.736 Y96.225 E11.89833
G1 X114.335 Y96.864 E11.92746
G1 X114.866 Y97.517 E11.95546
G1 X115.369 Y98.229 E11.98445
G1 X115.795 Y98.932 E12.01179
G1 X116.21 Y99.74 E12.04200
G1 X116.526 Y100.471 E12.06849
G1 X116.817 Y101.297 E12.09762
G1 X117.05 Y102.145 E12.12687
G1 X117.208 Y102.928 E12.15344
G1 X117.329 Y103.851 E12.18440
G1 X117.378 Y104.646 E12.21089
G1 X117.372 Y105.522 E12.24003
G1 X117.309 Y106.351 E12.26768
G1 X117.179 Y107.235 E12.29740
G1 X117.001 Y108.052 E12.32521
G1 X116.76 Y108.875 E12.35373
G1 X116.457 Y109.697 E12.38287
G1 X116.134 Y110.422 E12.40927
G1 X115.703 Y111.226 E12.43961
G1 X115.267 Y111.923 E12.46695
G1 X114.749 Y112.635 E12.49624
G1 X114.22 Y113.267 E12.52365
G1 X113.605 Y113.905 E12.55312
G1 X112.967 Y114.48 E12.58169
G1 X112.267 Y115.031 E12.61132
G1 X111.701 Y115.42 E12.63416
G1 X110.88 Y115.898 E12.66576
G1 X110.1 Y116.284 E12.69471
G1 X109.292 Y116.616 E12.72376
G1 X108.528 Y116.87 E12.75054
G1 X107.631 Y117.1 E12.78134
G1 X106.832 Y117.247 E12.80836
G1 X105.986 Y117.344 E12.83668
G1 X105.122 Y117.383 E12.86545
G1 X104.261 Y117.362 E12.89409
G1 X103.433 Y117.284 E12.92175
G1 X102.533 Y117.135 E12.95209
G1 X101.665 Y116.93 E12.98176
G1 X101.026 Y116.734 E13.00399
G1 X100.154 Y116.395 E13.03511
G1 X99.347 Y116.016 E13.06476
G1 X98.603 Y115.602 E13.09308
G1 X97.904 Y115.147 E13.12082
G1 X97.17 Y114.594 E13.15139
G1 X96.598 Y114.098 E13.17657
G1 X95.94 Y113.442 E13.20747
G1 X95.404 Y112.829 E13.23455
G1 X94.878 Y112.132 E13.26360
G1 X94.397 Y111.395 E13.29287
G1 X93.997 Y110.682 E13.32006
G1 X93.634 Y109.915 E13.34828
G1 X93.314 Y109.095 E13.37756
G1 X93.06 Y108.282 E13.40589
G1 X92.863 Y107.46 E13.43400
G1 X92.722 Y106.608 E13.46273
G1 X92.642 Y105.772 E13.49066
G1 X92.618 Y104.909 E13.51937
G1 X92.655 Y104.033 E13.54853
G1 X92.747 Y103.213 E13.57598
G1 X92.903 Y102.358 E13.60489
G1 X93.112 Y101.531 E13.63326
G1 X93.369 Y100.747 E13.66070
G1 X93.706 Y99.923 E13.69031
G1 X94.082 Y99.155 E13.71875
G1 X94.498 Y98.437 E13.74635
G1 X94.99 Y97.71 E13.77554
G1 X95.532 Y97.019 E13.80475
G1 X95.924 Y96.583 E13.82425
G0 F1620 X96.057 Y96.435
M204 S3000
M205 X10 Y10
G0 F3600 X96.353 Y96.704
M204 S1800
M205 X8 Y8
G1 F1800 X96.998 Y96.081 E13.85408
G1 X97.591 Y95.581 E13.87988
G1 X98.276 Y95.082 E13.90807
G1 X98.979 Y94.64 E13.93569
G1 X99.711 Y94.247 E13.96332
G1 X100.472 Y93.904 E13.99108
G1 X101.308 Y93.596 E14.02072
G1 X101.846 Y93.432 E14.03942
G1 X102.784 Y93.223 E14.07139
G1 X103.679 Y93.09 E14.10148
G1 X104.47 Y93.028 E14.12787
G1 X105.298 Y93.02 E14.15541
G1 X106.15 Y93.073 E14.18380
G1 X106.96 Y93.178 E14.21097
G1 X107.733 Y93.334 E14.23720
G1 X108.575 Y93.563 E14.26622
G1 X109.334 Y93.829 E14.29297
G1 X110.123 Y94.168 E14.32153
G1 X110.849 Y94.541 E14.34868
G1 X111.618 Y95.005 E14.37855
G1 X112.069 Y95.315 E14.39675
G1 X112.845 Y95.942 E14.42993
G1 X113.462 Y96.516 E14.45796
G1 X114.041 Y97.136 E14.48618
G1 X114.554 Y97.768 E14.51325
G1 X115.041 Y98.457 E14.54132
G1 X115.452 Y99.137 E14.56774
G1 X115.853 Y99.92 E14.59700
G1 X116.158 Y100.628 E14.62264
G1 X116.438 Y101.427 E14.65080
G1 X116.663 Y102.248 E14.67911
G1 X116.816 Y103.005 E14.70480
G1 X116.933 Y103.901 E14.73486
G1 X116.979 Y104.668 E14.76041
G1 X116.972 Y105.516 E14.78862
G1 X116.91 Y106.318 E14.81537
G1 X116.784 Y107.175 E14.84418
G1 X116.611 Y107.964 E14.87105
G1 X116.377 Y108.76 E14.89864
G1 X116.083 Y109.556 E14.92687
G1 X115.77 Y110.256 E14.95237
G1 X115.352 Y111.034 E14.98174
G1 X114.929 Y111.709 E15.00824
G1 X114.427 Y112.398 E15.03659
G1 X113.915 Y113.008 E15.06308
G1 X113.319 Y113.625 E15.09161
G1 X112.701 Y114.181 E15.11926
G1 X112.022 Y114.715 E15.14799
G1 X111.499 Y115.074 E15.16909
G1 X110.678 Y115.552 E15.20069
G1 X109.925 Y115.924 E15.22862
G1 X109.143 Y116.245 E15.25674
G1 X108.404 Y116.489 E15.28262
G1 X107.534 Y116.711 E15.31249
G1 X106.762 Y116.853 E15.33860
G1 X105.943 Y116.946 E15.36601
G1 X105.106 Y116.984 E15.39388
G1 X104.273 Y116.962 E15.42159
G1 X103.473 Y116.886 E15.44832
G1 X102.601 Y116.741 E15.47772
G1 X101.76 Y116.541 E15.50647
G1 X101.171 Y116.361 E15.52696
G1 X100.299 Y116.022 E15.55808
G1 X99.519 Y115.655 E15.58675
G1 X98.8 Y115.254 E15.61413
G1 X98.125 Y114.814 E15.64093
G1 X97.413 Y114.276 E15.67061
G1 X96.862 Y113.797 E15.69489
G1 X96.224 Y113.161 E15.72486
G1 X95.708 Y112.568 E15.75100
G1 X95.199 Y111.894 E15.77909
G1 X94.733 Y111.178 E15.80751
G1 X94.348 Y110.489 E15.83376
G1 X93.997 Y109.746 E15.86109
G1 X93.688 Y108.953 E15.88939
G1 X93.443 Y108.165 E15.91684
G1 X93.253 Y107.369 E15.94406
G1 X93.117 Y106.545 E15.97184
G1 X93.04 Y105.737 E15.99883
G1 X93.017 Y104.901 E16.02665
G1 X93.054 Y104.053 E16.05488
G1 X93.144 Y103.261 E16.08139
G1 X93.296 Y102.433 E16.10939
G1 X93.5 Y101.632 E16.13688
G1 X93.749 Y100.874 E16.16342
G1 X94.075 Y100.077 E16.19206
G1 X94.44 Y99.333 E16.21962
G1 X94.843 Y98.64 E16.24629
G1 X95.32 Y97.936 E16.27457
G1 X95.845 Y97.267 E16.30285
G1 X96.219 Y96.852 E16.32144
G0 F1620 X96.353 Y96.704
M204 S3000
M205 X10 Y10
G0 F3600 X96.648 Y96.973
M204 S1800
M205 X8 Y8
G1 F1800 X97.274 Y96.37 E16.35035
G1 X97.847 Y95.889 E16.37523
G1 X98.51 Y95.406 E16.40251
G1 X99.19 Y94.98 E16.42920
G1 X99.898 Y94.601 E16.45591
G1 X100.634 Y94.27 E16.48275
G1 X101.445 Y93.972 E16.51149
G1 X101.942 Y93.821 E16.52876
G1 X102.868 Y93.614 E16.56032
G1 X103.735 Y93.486 E16.58947
G1 X104.499 Y93.427 E16.61496
G1 X105.3 Y93.42 E16.64160
G1 X106.123 Y93.472 E16.66903
G1 X106.906 Y93.575 E16.69530
G1 X107.652 Y93.725 E16.72060
G1 X108.468 Y93.948 E16.74874
G1 X109.2 Y94.205 E16.77454
G1 X109.963 Y94.534 E16.80218
G1 X110.664 Y94.895 E16.82840
G1 X111.41 Y95.346 E16.85740
