;FLAVOR:Marlin
;TIME:1160
;Filament used: 0.713275m
;Layer height: 0.1
;MINX:91.418
;MINY:91.42
;MINZ:0.2
;MAXX:118.577
;MAXY:118.582
;MAXZ:10
;Generated with Cura_SteamEngine 4.5.0
M140 S60
M105
M190 S60
M104 S210
M105
M109 S210
M82 ;absolute extrusion mode
G21 ;metric values
G90 ;absolute positioning
M82 ;set extruder to absolute mode
M107 ;start with the fan off
G28 X0 Y0 ;move X/Y to min endstops
G28 Z0 ;move Z to min endstops
G1 Z15.0 F120 ;move the platform down 15mm
G92 E0 ;zero the extruded length
G1 F200 E3 ;extrude 3mm of feed stock
G92 E0 ;zero the extruded length again
G1 F120
G0 Y20 F120
M117 Printing...
G5
G92 E0
G92 E0
G1 F3000 E-6
;LAYER_COUNT:99
;LAYER:0
M107
M204 S3000
M205 X10 Y10
G1 F1800 Z0.275
G0 F3600 X95.17 Y95.627 Z0.275
M204 S1800
M205 X8 Y8
;TYPE:SKIRT
G1 F1800 Z0.2
G1 F3000 E0
G1 F1800 X95.892 Y94.924 E0.03352
G1 X96.569 Y94.35 E0.06304
G1 X97.341 Y93.784 E0.09488
G1 X98.136 Y93.28 E0.12618
G1 X98.963 Y92.833 E0.15745
G1 X99.822 Y92.442 E0.18884
G1 X100.763 Y92.092 E0.22223
G1 X101.276 Y91.93 E0.24013
G1 X101.791 Y91.799 E0.2578
G1 X102.447 Y91.658 E0.28012
G1 X103.453 Y91.506 E0.31396
G1 X104.356 Y91.432 E0.34409
G1 X105.291 Y91.42 E0.37519
G1 X106.259 Y91.476 E0.40744
G1 X107.176 Y91.593 E0.43819
G1 X108.057 Y91.767 E0.46806
G1 X109.003 Y92.021 E0.50064
G1 X109.873 Y92.322 E0.53126
G1 X110.763 Y92.701 E0.56343
G1 X111.589 Y93.122 E0.59427
G1 X112.452 Y93.639 E0.62773
G1 X112.905 Y93.945 E0.64591
G1 X113.316 Y94.256 E0.66305
G1 X113.863 Y94.707 E0.68663
G1 X114.558 Y95.35 E0.71812
G1 X115.216 Y96.05 E0.75007
G1 X115.802 Y96.766 E0.78085
G1 X116.353 Y97.542 E0.8125
G1 X116.826 Y98.317 E0.8427
G1 X117.281 Y99.199 E0.87571
G1 X117.631 Y100.002 E0.90484
G1 X117.951 Y100.906 E0.93674
G1 X118.209 Y101.835 E0.96881
G1 X118.386 Y102.698 E0.99811
G1 X118.52 Y103.702 E1.0318
G1 X118.577 Y104.581 E1.0611
G1 X118.572 Y105.539 E1.09296
G1 X118.505 Y106.45 E1.12334
G1 X118.366 Y107.417 E1.15583
G1 X118.171 Y108.317 E1.18646
G1 X117.91 Y109.219 E1.21769
G1 X117.581 Y110.119 E1.24957
G1 X117.226 Y110.919 E1.27868
G1 X116.758 Y111.799 E1.31183
G1 X116.279 Y112.567 E1.34193
G1 X115.714 Y113.348 E1.37399
G1 X115.134 Y114.044 E1.40412
G1 X114.463 Y114.743 E1.43635
G1 X113.765 Y115.377 E1.46771
G1 X113.003 Y115.979 E1.50001
G1 X112.555 Y116.297 E1.51829
G1 X111.483 Y116.935 E1.55978
G1 X110.623 Y117.364 E1.59174
G1 X109.741 Y117.728 E1.62348
G1 X108.898 Y118.011 E1.65305
G1 X107.922 Y118.264 E1.68659
G1 X107.042 Y118.429 E1.71637
G1 X106.115 Y118.537 E1.74741
G1 X105.168 Y118.582 E1.77894
G1 X104.223 Y118.561 E1.81038
G1 X103.312 Y118.478 E1.84081
G1 X102.331 Y118.318 E1.87387
G1 X101.381 Y118.096 E1.90631
G1 X100.862 Y117.945 E1.92429
G1 X99.72 Y117.513 E1.9649
G1 X98.829 Y117.099 E1.99758
G1 X98.013 Y116.647 E2.02861
G1 X97.243 Y116.149 E2.0591
G1 X96.441 Y115.547 E2.09246
G1 X95.805 Y114.999 E2.12038
G1 X95.088 Y114.287 E2.15399
G1 X94.495 Y113.612 E2.18387
G1 X93.916 Y112.849 E2.21573
G1 X93.388 Y112.044 E2.24775
G1 X92.947 Y111.261 E2.27764
G1 X92.546 Y110.421 E2.3086
G1 X92.194 Y109.524 E2.34065
G1 X91.912 Y108.632 E2.37176
G1 X91.695 Y107.732 E2.40255
G1 X91.537 Y106.797 E2.43409
G1 X91.446 Y105.879 E2.46478
G1 X91.418 Y104.935 E2.49619
G1 X91.456 Y103.974 E2.52817
G1 X91.555 Y103.071 E2.55839
G1 X91.724 Y102.135 E2.59002
G1 X91.951 Y101.229 E2.62109
G1 X92.231 Y100.366 E2.65127
G1 X92.598 Y99.462 E2.68372
G1 X93.008 Y98.62 E2.71486
G1 X93.464 Y97.829 E2.74523
G1 X94.001 Y97.03 E2.77725
G1 X94.593 Y96.272 E2.80924
G1 X95.037 Y95.776 E2.83138
G0 F1620 X95.17 Y95.627
M204 S3000
M205 X10 Y10
G0 F3600 X95.466 Y95.896
M204 S1800
M205 X8 Y8
G1 F1800 X96.168 Y95.213 E2.86396
G1 X96.825 Y94.658 E2.89256
G1 X97.575 Y94.108 E2.9235
G1 X98.347 Y93.62 E2.95387
G1 X99.15 Y93.187 E2.98422
G1 X99.985 Y92.808 E3.01472
G1 X100.899 Y92.468 E3.04715
G1 X101.393 Y92.313 E3.06437
G1 X102.532 Y92.049 E3.10326
G1 X103.509 Y91.902 E3.13612
G1 X104.384 Y91.831 E3.16532
G1 X105.293 Y91.82 E3.19555
G1 X106.231 Y91.875 E3.2268
G1 X107.122 Y91.989 E3.25668
G1 X107.976 Y92.159 E3.28564
G1 X108.896 Y92.407 E3.31733
G1 X109.738 Y92.699 E3.34698
G1 X110.603 Y93.068 E3.37825
G1 X111.404 Y93.477 E3.40817
G1 X112.243 Y93.981 E3.44072
G1 X112.678 Y94.274 E3.45816
G1 X113.609 Y95.016 E3.49776
G1 X114.284 Y95.642 E3.52838
G1 X114.923 Y96.322 E3.55942
G1 X115.49 Y97.016 E3.58922
G1 X116.025 Y97.771 E3.62
G1 X116.482 Y98.522 E3.64924
G1 X116.924 Y99.38 E3.68134
G1 X117.263 Y100.158 E3.70957
G1 X117.573 Y101.036 E3.74054
G1 X117.822 Y101.938 E3.77166
G1 X117.994 Y102.775 E3.80008
G1 X118.123 Y103.752 E3.83286
G1 X118.177 Y104.603 E3.86122
G1 X118.172 Y105.533 E3.89215
G1 X118.106 Y106.417 E3.92163
G1 X117.97 Y107.356 E3.95319
G1 X117.781 Y108.229 E3.9829
G1 X117.527 Y109.104 E4.0132
G1 X117.206 Y109.978 E4.04417
G1 X116.862 Y110.753 E4.07237
G1 X116.406 Y111.608 E4.1046
G1 X115.942 Y112.352 E4.13377
G1 X115.393 Y113.11 E4.1649
G1 X114.83 Y113.785 E4.19413
G1 X114.177 Y114.464 E4.22546
G1 X113.499 Y115.078 E4.25589
G1 X112.757 Y115.663 E4.28731
G1 X112.326 Y115.969 E4.30489
G1 X111.282 Y116.589 E4.34528
G1 X110.449 Y117.004 E4.37623
G1 X109.592 Y117.357 E4.40706
G1 X108.775 Y117.631 E4.43572
G1 X107.825 Y117.876 E4.46835
G1 X106.972 Y118.035 E4.49721
G1 X106.072 Y118.139 E4.52734
G1 X105.153 Y118.183 E4.55795
G1 X104.235 Y118.161 E4.58849
G1 X103.352 Y118.08 E4.61798
G1 X102.398 Y117.924 E4.65013
G1 X101.476 Y117.707 E4.68163
G1 X100.977 Y117.562 E4.69892
G1 X99.865 Y117.141 E4.73846
G1 X99.002 Y116.738 E4.77014
G1 X98.209 Y116.299 E4.80029
G1 X97.463 Y115.815 E4.82987
G1 X96.684 Y115.229 E4.86229
G1 X96.069 Y114.699 E4.88929
G1 X95.372 Y114.005 E4.92201
G1 X94.798 Y113.351 E4.95095
G1 X94.236 Y112.61 E4.98188
G1 X93.724 Y111.828 E5.01297
G1 X93.297 Y111.068 E5.04196
G1 X92.909 Y110.252 E5.07202
G1 X92.567 Y109.381 E5.10314
G1 X92.295 Y108.515 E5.13333
G1 X92.084 Y107.641 E5.16323
G1 X91.932 Y106.734 E5.19382
G1 X91.845 Y105.844 E5.22356
G1 X91.818 Y104.926 E5.25411
G1 X91.856 Y103.994 E5.28513
G1 X91.952 Y103.119 E5.31441
G1 X92.117 Y102.21 E5.34514
G1 X92.338 Y101.329 E5.37535
G1 X92.611 Y100.493 E5.4046
G1 X92.967 Y99.616 E5.43608
G1 X93.366 Y98.798 E5.46635
G1 X93.808 Y98.031 E5.49579
G1 X94.331 Y97.257 E5.52686
G1 X94.906 Y96.521 E5.55793
G1 X95.333 Y96.044 E5.57922
G0 F1620 X95.466 Y95.896
M204 S3000
M205 X10 Y10
G0 F3600 X95.761 Y96.165
M204 S1800
M205 X8 Y8
G1 F1800 X96.445 Y95.502 E5.6109
G1 X97.08 Y94.966 E5.63854
G1 X97.808 Y94.433 E5.66855
G1 X98.557 Y93.96 E5.69801
G1 X99.337 Y93.54 E5.72748
G1 X100.147 Y93.173 E5.75706
G1 X101.036 Y92.844 E5.78858
G1 X101.655 Y92.655 E5.81011
G1 X102.616 Y92.441 E5.84286
G1 X103.566 Y92.298 E5.87481
G1 X104.413 Y92.23 E5.90307
G1 X105.295 Y92.22 E5.93241
G1 X106.204 Y92.274 E5.9627
G1 X107.068 Y92.386 E5.99167
G1 X107.895 Y92.55 E6.01972
G1 X108.789 Y92.792 E6.05052
G1 X109.604 Y93.075 E6.07921
G1 X110.443 Y93.434 E6.10957
G1 X111.219 Y93.831 E6.13856
G1 X112.035 Y94.322 E6.17023
G1 X112.45 Y94.604 E6.18692
G1 X113.354 Y95.325 E6.22538
G1 X114.01 Y95.933 E6.25513
G1 X114.629 Y96.593 E6.28522
G1 X115.178 Y97.267 E6.31414
G1 X115.697 Y98 E6.34401
G1 X116.139 Y98.727 E6.37231
G1 X116.567 Y99.56 E6.40346
G1 X116.895 Y100.315 E6.43084
G1 X117.195 Y101.167 E6.46088
G1 X117.436 Y102.042 E6.49107
G1 X117.601 Y102.852 E6.51856
G1 X117.726 Y103.802 E6.55043
G1 X117.778 Y104.624 E6.57782
G1 X117.772 Y105.527 E6.60786
G1 X117.707 Y106.384 E6.63644
G1 X117.575 Y107.296 E6.66709
G1 X117.391 Y108.141 E6.69586
G1 X117.143 Y108.99 E6.72527
G1 X116.832 Y109.837 E6.75528
G1 X116.498 Y110.587 E6.78259
G1 X116.055 Y111.417 E6.81388
G1 X115.604 Y112.138 E6.84217
G1 X115.071 Y112.873 E6.87237
G1 X114.525 Y113.526 E6.90068
G1 X113.891 Y114.184 E6.93107
G1 X113.233 Y114.779 E6.96057
G1 X112.512 Y115.347 E6.9911
G1 X112.097 Y115.641 E7.00802
G1 X111.081 Y116.244 E7.04731
G1 X110.274 Y116.644 E7.07727
G1 X109.442 Y116.986 E7.10719
G1 X108.651 Y117.25 E7.13493
G1 X107.728 Y117.488 E7.16663
G1 X106.902 Y117.641 E7.19457
G1 X106.029 Y117.742 E7.2238
G1 X105.137 Y117.783 E7.2535
G1 X104.248 Y117.762 E7.28307
G1 X103.392 Y117.682 E7.31167
G1 X102.466 Y117.53 E7.34288
G1 X101.57 Y117.318 E7.3735
G1 X100.881 Y117.107 E7.39747
G1 X100.009 Y116.768 E7.42859
G1 X99.174 Y116.377 E7.45925
G1 X98.406 Y115.951 E7.48846
G1 X97.684 Y115.481 E7.51712
G1 X96.927 Y114.911 E7.54864
G1 X96.334 Y114.398 E7.57472
G1 X95.656 Y113.724 E7.60651
G1 X95.101 Y113.09 E7.63454
G1 X94.557 Y112.371 E7.66452
G1 X94.06 Y111.611 E7.69473
G1 X93.647 Y110.875 E7.7228
G1 X93.271 Y110.083 E7.75196
G1 X92.941 Y109.238 E7.78213
G1 X92.678 Y108.399 E7.81137
G1 X92.474 Y107.551 E7.84038
G1 X92.327 Y106.671 E7.87006
G1 X92.243 Y105.808 E7.8989
G1 X92.218 Y104.918 E7.92851
G1 X92.255 Y104.013 E7.95864
G1 X92.35 Y103.166 E7.98698
G1 X92.51 Y102.284 E8.0168
G1 X92.725 Y101.43 E8.04609
G1 X92.99 Y100.62 E8.07443
G1 X93.337 Y99.77 E8.10497
G1 X93.724 Y98.977 E8.13432
G1 X94.153 Y98.234 E8.16285
G1 X94.661 Y97.483 E8.19301
G1 X95.219 Y96.77 E8.22312
G1 X95.628 Y96.314 E8.2435
G0 F1620 X95.761 Y96.165
M204 S3000
M205 X10 Y10
G0 F3600 X96.057 Y96.435
M204 S1800
M205 X8 Y8
G1 F1800 X96.721 Y95.791 E8.27426
G1 X97.336 Y95.273 E8.30101
G1 X98.042 Y94.757 E8.33009
G1 X98.768 Y94.3 E8.35862
G1 X99.524 Y93.894 E8.38717
G1 X100.31 Y93.539 E8.41585
G1 X101.172 Y93.22 E8.44642
G1 X101.75 Y93.044 E8.46652
G1 X102.7 Y92.832 E8.49889
G1 X103.622 Y92.694 E8.5299
G1 X104.442 Y92.629 E8.55726
G1 X105.297 Y92.62 E8.5857
G1 X106.177 Y92.673 E8.61502
G1 X107.014 Y92.782 E8.64309
G1 X107.814 Y92.942 E8.67023
G1 X108.682 Y93.178 E8.70015
G1 X109.469 Y93.452 E8.72786
G1 X110.283 Y93.801 E8.75732
G1 X111.034 Y94.186 E8.78539
G1 X111.826 Y94.664 E8.81616
G1 X112.311 Y94.996 E8.83571
G1 X113.1 Y95.633 E8.86943
G1 X113.736 Y96.225 E8.89833
G1 X114.335 Y96.864 E8.92746
G1 X114.866 Y97.517 E8.95546
G1 X115.369 Y98.229 E8.98445
G1 X115.795 Y98.932 E9.01179
G1 X116.21 Y99.74 E9.042
G1 X116.526 Y100.471 E9.06849
G1 X116.817 Y101.297 E9.09762
G1 X117.05 Y102.145 E9.12687
G1 X117.208 Y102.928 E9.15344
G1 X117.329 Y103.851 E9.1844
G1 X117.378 Y104.646 E9.21089
G1 X117.372 Y105.522 E9.24003
G1 X117.309 Y106.351 E9.26768
G1 X117.179 Y107.235 E9.2974
G1 X117.001 Y108.052 E9.32521
G1 X116.76 Y108.875 E9.35373
G1 X116.457 Y109.697 E9.38287
G1 X116.134 Y110.422 E9.40927
G1 X115.703 Y111.226 E9.43961
G1 X115.267 Y111.923 E9.46695
G1 X114.749 Y112.635 E9.49624
G1 X114.22 Y113.267 E9.52365
G1 X113.605 Y113.905 E9.55312
G1 X112.967 Y114.48 E9.58169
G1 X112.267 Y115.031 E9.61132
G1 X111.701 Y115.42 E9.63416
G1 X110.88 Y115.898 E9.66576
G1 X110.1 Y116.284 E9.69471
G1 X109.292 Y116.616 E9.72376
G1 X108.528 Y116.87 E9.75054
G1 X107.631 Y117.1 E9.78134
G1 X106.832 Y117.247 E9.80836
G1 X105.986 Y117.344 E9.83668
G1 X105.122 Y117.383 E9.86545
G1 X104.261 Y117.362 E9.89409
G1 X103.433 Y117.284 E9.92175
G1 X102.533 Y117.135 E9.95209
G1 X101.665 Y116.93 E9.98176
G1 X101.026 Y116.734 E10.00399
G1 X100.154 Y116.395 E10.03511
G1 X99.347 Y116.016 E10.06476
G1 X98.603 Y115.602 E10.09308
G1 X97.904 Y115.147 E10.12082
G1 X97.17 Y114.594 E10.15139
G1 X96.598 Y114.098 E10.17657
G1 X95.94 Y113.442 E10.20747
G1 X95.404 Y112.829 E10.23455
G1 X94.878 Y112.132 E10.2636
G1 X94.397 Y111.395 E10.29287
G1 X93.997 Y110.682 E10.32006
G1 X93.634 Y109.915 E10.34828
G1 X93.314 Y109.095 E10.37756
G1 X93.06 Y108.282 E10.40589
G1 X92.863 Y107.46 E10.434
G1 X92.722 Y106.608 E10.46273
G1 X92.642 Y105.772 E10.49066
G1 X92.618 Y104.909 E10.51937
G1 X92.655 Y104.033 E10.54853
G1 X92.747 Y103.213 E10.57598
G1 X92.903 Y102.358 E10.60489
G1 X93.112 Y101.531 E10.63326
G1 X93.369 Y100.747 E10.6607
G1 X93.706 Y99.923 E10.69031
G1 X94.082 Y99.155 E10.71875
G1 X94.498 Y98.437 E10.74635
G1 X94.99 Y97.71 E10.77554
G1 X95.532 Y97.019 E10.80475
G1 X95.924 Y96.583 E10.82425
G0 F1620 X96.057 Y96.435
M204 S3000
M205 X10 Y10
G0 F3600 X96.353 Y96.704
M204 S1800
M205 X8 Y8
G1 F1800 X96.998 Y96.081 E10.85408
G1 X97.591 Y95.581 E10.87988
G1 X98.276 Y95.082 E10.90807
G1 X98.979 Y94.64 E10.93569
G1 X99.711 Y94.247 E10.96332
G1 X100.472 Y93.904 E10.99108
G1 X101.308 Y93.596 E11.02072
G1 X101.846 Y93.432 E11.03942
G1 X102.784 Y93.223 E11.07139
G1 X103.679 Y93.09 E11.10148
G1 X104.47 Y93.028 E11.12787
G1 X105.298 Y93.02 E11.15541
G1 X106.15 Y93.073 E11.1838
G1 X106.96 Y93.178 E11.21097
G1 X107.733 Y93.334 E11.2372
G1 X108.575 Y93.563 E11.26622
G1 X109.334 Y93.829 E11.29297
G1 X110.123 Y94.168 E11.32153
G1 X110.849 Y94.541 E11.34868
G1 X111.618 Y95.005 E11.37855
G1 X112.069 Y95.315 E11.39675
G1 X112.845 Y95.942 E11.42993
G1 X113.462 Y96.516 E11.45796
G1 X114.041 Y97.136 E11.48618
G1 X114.554 Y97.768 E11.51325
G1 X115.041 Y98.457 E11.54132
G1 X115.452 Y99.137 E11.56774
G1 X115.853 Y99.92 E11.597
G1 X116.158 Y100.628 E11.62264
G1 X116.438 Y101.427 E11.6508
G1 X116.663 Y102.248 E11.67911
G1 X116.816 Y103.005 E11.7048
G1 X116.933 Y103.901 E11.73486
G1 X116.979 Y104.668 E11.76041
G1 X116.972 Y105.516 E11.78862
G1 X116.91 Y106.318 E11.81537
G1 X116.784 Y107.175 E11.84418
G1 X116.611 Y107.964 E11.87105
G1 X116.377 Y108.76 E11.89864
G1 X116.083 Y109.556 E11.92687
G1 X115.77 Y110.256 E11.95237
G1 X115.352 Y111.034 E11.98174
G1 X114.929 Y111.709 E12.00824
G1 X114.427 Y112.398 E12.03659
G1 X113.915 Y113.008 E12.06308
G1 X113.319 Y113.625 E12.09161
G1 X112.701 Y114.181 E12.11926
G1 X112.022 Y114.715 E12.14799
G1 X111.499 Y115.074 E12.16909
G1 X110.678 Y115.552 E12.20069
G1 X109.925 Y115.924 E12.22862
G1 X109.143 Y116.245 E12.25674
G1 X108.404 Y116.489 E12.28262
G1 X107.534 Y116.711 E12.31249
G1 X106.762 Y116.853 E12.3386
G1 X105.943 Y116.946 E12.36601
G1 X105.106 Y116.984 E12.39388
G1 X104.273 Y116.962 E12.42159
G1 X103.473 Y116.886 E12.44832
G1 X102.601 Y116.741 E12.47772
G1 X101.76 Y116.541 E12.50647
G1 X101.171 Y116.361 E12.52696
G1 X100.299 Y116.022 E12.55808
G1 X99.519 Y115.655 E12.58675
G1 X98.8 Y115.254 E12.61413
G1 X98.125 Y114.814 E12.64093
G1 X97.413 Y114.276 E12.67061
G1 X96.862 Y113.797 E12.69489
G1 X96.224 Y113.161 E12.72486
G1 X95.708 Y112.568 E12.751
G1 X95.199 Y111.894 E12.77909
G1 X94.733 Y111.178 E12.80751
G1 X94.348 Y110.489 E12.83376
G1 X93.997 Y109.746 E12.86109
G1 X93.688 Y108.953 E12.88939
G1 X93.443 Y108.165 E12.91684
G1 X93.253 Y107.369 E12.94406
G1 X93.117 Y106.545 E12.97184
G1 X93.04 Y105.737 E12.99883
G1 X93.017 Y104.901 E13.02665
G1 X93.054 Y104.053 E13.05488
G1 X93.144 Y103.261 E13.08139
G1 X93.296 Y102.433 E13.10939
G1 X93.5 Y101.632 E13.13688
G1 X93.749 Y100.874 E13.16342
G1 X94.075 Y100.077 E13.19206
G1 X94.44 Y99.333 E13.21962
G1 X94.843 Y98.64 E13.24629
G1 X95.32 Y97.936 E13.27457
G1 X95.845 Y97.267 E13.30285
G1 X96.219 Y96.852 E13.32144
G0 F1620 X96.353 Y96.704
M204 S3000
M205 X10 Y10
G0 F3600 X96.648 Y96.973
M204 S1800
M205 X8 Y8
G1 F1800 X97.274 Y96.37 E13.35035
G1 X97.847 Y95.889 E13.37523
G1 X98.51 Y95.406 E13.40251
G1 X99.19 Y94.98 E13.4292
G1 X99.898 Y94.601 E13.45591
G1 X100.634 Y94.27 E13.48275
G1 X101.445 Y93.972 E13.51149
G1 X101.942 Y93.821 E13.52876
G1 X102.868 Y93.614 E13.56032
G1 X103.735 Y93.486 E13.58947
G1 X104.499 Y93.427 E13.61496
G1 X105.3 Y93.42 E13.6416
G1 X106.123 Y93.472 E13.66903
G1 X106.906 Y93.575 E13.6953
G1 X107.652 Y93.725 E13.7206
G1 X108.468 Y93.948 E13.74874
G1 X109.2 Y94.205 E13.77454
G1 X109.963 Y94.534 E13.80218
G1 X110.664 Y94.895 E13.8284
G1 X111.41 Y95.346 E13.8574
G1 X111.827 Y95.634 E13.87425
G1 X112.591 Y96.25 E13.9069
G1 X113.188 Y96.807 E13.93405
G1 X113.747 Y97.407 E13.96133
G1 X114.243 Y98.018 E13.9875
G1 X114.713 Y98.686 E14.01467
